%
(1966)
(T1  D=3.175 CR=0 - ZMIN=-5.019 - flat end mill)
G90 G94
G17
G21
G28 G91 Z0
G90

(Pocket1)
M9
T1 M6
S5000 M3
G54
M9
G0 X65.409 Y45.199
Z15
Z4
G1 Z-1.664 F333.3
X65.405 Y45.206 Z-1.735
G3 X65.391 Y45.225 Z-1.802 I-0.263 J-0.178
X65.366 Y45.253 Z-1.862 I-0.249 J-0.197
X65.328 Y45.286 Z-1.912 I-0.224 J-0.225
X65.276 Y45.316 Z-1.95 I-0.185 J-0.258
X65.212 Y45.337 Z-1.973 I-0.133 J-0.288
X65.142 Y45.345 Z-1.981 I-0.07 J-0.31
G1 X65.107 F700
G3 X64.864 Y45.261 J-0.393
G1 X64.655 Y45.098
G3 Y44.477 I0.24 J-0.311
G1 X64.706 Y44.437
G3 X64.947 Y44.355 I0.241 J0.31
G1 X79.803
G3 X80.195 Y44.747 J0.393
G1 Y44.953
G3 X79.803 Y45.345 I-0.393
G1 X65.142
G2 X63.792 Y45.922 J1.87
G3 X62.33 Y46.067 I-0.815 J-0.781
G2 X61.135 Y45.281 I-14.717 J21.082
G3 Y44.295 I0.306 J-0.493
G2 X63.451 Y42.68 I-13.727 J-22.15
G3 X64.852 Y42.197 I1.402 J1.792
G1 X81.39
G3 X82.353 Y43.16 J0.963
G1 Y46.54
G3 X81.39 Y47.503 I-0.963
G1 X65.011
G3 X63.597 Y47.01 J-2.275
G2 X62.33 Y46.067 I-15.984 J20.139
X60.478 Y46.051 I-0.938 J1.343
G3 X58.627 Y46.141 I-1 J-1.485
G2 X56.758 Y45.212 I-14.532 J26.895
G3 Y44.363 I0.193 J-0.425
G2 X59.612 Y42.879 I-12.562 J-27.652
X62.269 Y41.064 I-12.186 J-20.686
G3 X64.777 Y40.196 I2.508 J3.189
G1 X83.391
G3 X84.354 Y41.159 J0.963
G1 Y48.541
G3 X83.391 Y49.504 I-0.963
G1 X64.934
G3 X62.403 Y48.618 J-4.057
G2 X59.686 Y46.741 I-14.891 J18.654
X58.627 Y46.141 I-15.591 J26.295
X56.972 Y46.315 I-0.7 J1.296
G3 X55.33 Y46.582 I-1.041 J-1.224
G2 X50.085 Y45.068 I-9.992 J24.77
G3 Y44.507 I0.051 J-0.28
G2 X55.291 Y43.03 I-4.926 J-27.272
X60.07 Y40.493 I-8.711 J-22.18
X60.773 Y39.954 I-4.828 J-7.03
G3 X61.454 Y39.386 I27.858 J32.686
X64.283 Y38.377 I2.829 J3.462
G1 X85.229
G3 X86.173 Y39.321 J0.944
G1 Y50.379
G3 X85.229 Y51.323 I-0.944
G1 X64.413
G3 X61.594 Y50.305 J-4.409
G2 X56.179 Y46.942 I-14.837 J17.851
X55.33 Y46.582 I-10.841 J24.41
X54.059 Y46.853 I-0.435 J1.077
G3 X52.8 Y47.18 I-0.895 J-0.862
G2 X52.425 Y47.069 I-6.572 J21.516
X42.697 Y46.377 I-6.502 J22.691
G3 X41.666 Y45.74 I-0.13 J-0.942
G1 X41.639 Y45.659
G3 X41.638 Y45.041 I0.899 J-0.309
G2 X41.94 Y44.083 I-18.699 J-6.413
G3 X43.173 Y43.256 I1.108 J0.319
G2 X52.565 Y42.441 I2.637 J-24.143
X60.862 Y37.966 I-6.207 J-21.438
G3 X63.727 Y36.908 I2.865 J3.351
G1 X86.679
G3 X87.642 Y37.871 J0.963
G1 Y51.829
G3 X86.679 Y52.792 I-0.963
G1 X63.852
G3 X60.995 Y51.723 J-4.353
G2 X52.8 Y47.18 I-14.767 J16.973
X50.811 Y47.809 I-0.538 J1.76
G3 X48.883 Y48.603 I-1.662 J-1.295
G2 X48.359 Y48.544 I-2.428 J19.035
X41.093 Y49.061 I-2.13 J21.353
G3 X39.977 Y48.371 I-0.22 J-0.892
G2 X39.401 Y46.35 I-18.059 J4.058
G3 X39.4 Y44.352 I2.869 J-1
G2 X40.185 Y41.244 I-17.384 J-6.045
G3 X41.231 Y40.546 I0.845 J0.134
G2 X59.56 Y36.023 I4.807 J-19.919
X59.792 Y35.805 I-3.364 J-3.811
G3 X60.023 Y35.588 I3.595 J3.594
X62.722 Y34.567 I2.699 J3.058
G1 X88.066
G3 X89.983 Y36.484 J1.917
G1 Y53.214
G3 X88.064 Y55.133 I-1.919
G1 X62.825
G3 X60.184 Y54.13 J-3.979
G2 X57.868 Y52.231 I-25.403 J28.625
X55.338 Y50.63 I-10.879 J14.383
X48.883 Y48.603 I-8.884 J17.009
X47.024 Y49.547 I-0.235 J1.839
G3 X45.255 Y50.649 I-1.869 J-1.03
G2 X43.291 Y50.854 I0.791 J17.04
X38.877 Y52.072 I3.463 J21.169
G3 X38.155 Y51.604 I-0.194 J-0.492
G2 X37.052 Y46.474 I-15.859 J0.727
G3 X37.051 Y44.229 I2.824 J-1.124
G2 X37.898 Y41.247 I-14.303 J-5.678
X38.171 Y38.159 I-17.36 J-3.089
G3 X39.034 Y37.565 I0.636
G2 X46.759 Y38.897 I7.256 J-19.014
X54.348 Y36.931 I-0.396 J-17.158
X56.887 Y35.301 I-8.094 J-15.402
X59.168 Y33.326 I-16.444 J-21.299
G3 X61.647 Y32.322 I2.479 J2.558
G1 X88.651
G3 X91.156 Y33.358 J3.546
G1 X91.186 Y33.389
G3 X92.228 Y35.899 I-2.506 J2.511
G1 Y53.805
G3 X91.196 Y56.301 I-3.533
G1 X91.158 Y56.338
G3 X88.652 Y57.378 I-2.507 J-2.501
G1 X61.736
G3 X59.298 Y56.375 J-3.465
G2 X54.063 Y52.581 I-14.91 J15.061
X47.869 Y50.728 I-8.088 J15.761
X45.255 Y50.649 I-1.824 J16.96
X43.707 Y51.809 I0.08 J1.718
G3 X42.266 Y53.1 I-1.872 J-0.641
G2 X38.371 Y54.522 I3.476 J15.567
X37.539 Y54.992 I6.471 J12.419
G1 X36.9 Y55.383
G3 X36.096 Y54.932 I-0.276 J-0.451
G1 X36.095 Y51.715
G2 X35.682 Y48.675 I-11.401 J0.001
X35.255 Y47.481 I-8.307 J2.299
X34.725 Y46.329 I-40.246 J17.84
G3 X34.722 Y44.371 I2.053 J-0.982
G2 X35.595 Y42.274 I-20.815 J-9.889
X36.125 Y40.065 I-9.82 J-3.528
X36.196 Y37.364 I-13.357 J-1.702
G3 X36.096 Y34.663 I36.268 J-2.698
X36.915 Y34.201 I0.54
G2 X42.953 Y36.579 I10.011 J-16.567
X49.442 Y36.475 I3.015 J-14.376
X58.303 Y31.243 I-4.19 J-17.214
G3 X60.57 Y30.247 I2.267 J2.082
G1 X89.727
G3 X91.991 Y31.242 J3.073
G2 X93.312 Y32.563 I16.01 J-14.696
G3 X94.303 Y34.819 I-2.074 J2.257
G1 Y54.877
G3 X93.304 Y57.145 I-3.073
G2 X91.991 Y58.458 I14.097 J15.414
G3 X89.727 Y59.453 I-2.264 J-2.078
G1 X60.649
G3 X58.418 Y58.461 J-3.006
G2 X49.068 Y53.067 I-13.003 J11.739
X42.266 Y53.1 I-3.326 J15.6
X41.058 Y54.401 I0.341 J1.528
G3 X39.976 Y55.809 I-1.8 J-0.264
G2 X33.927 Y60.638 I5.754 J13.41
X33.718 Y60.95 I3.858 J2.805
G3 X33.514 Y61.264 I-6.043 J-3.705
X33.275 Y61.39 I-0.239 J-0.165
G1 X33.27
G3 X33.007 Y60.974 J-0.291
G2 X34.134 Y56.708 I-10.814 J-5.138
X34.294 Y52.298 I-60.337 J-4.406
X33.797 Y49.14 I-10.286 J0.001
X32.474 Y46.229 I-13.313 J4.297
G3 X32.471 Y44.478 I1.459 J-0.877
G2 X34.271 Y37.541 I-10.941 J-6.54
G3 X34.16 Y30.376 I229.928 J-7.153
X34.909 Y30.077 I0.434
G2 X43.141 Y34.679 I11.491 J-10.89
X52.481 Y33.38 I2.865 J-13.622
X57.418 Y29.3 I-7.258 J-13.811
G3 X59.476 Y28.31 I2.057 J1.643
G1 X90.826
G3 X92.872 Y29.294 J2.621
G2 X93.991 Y30.547 I12.241 J-9.796
X95.244 Y31.667 I10.068 J-10.003
G3 X96.24 Y33.727 I-1.632 J2.06
G1 Y55.974
G3 X95.257 Y58.023 I-2.627
G2 X92.872 Y60.406 I9.696 J12.084
G3 X90.826 Y61.39 I-2.046 J-1.637
G1 X59.55
G3 X57.51 Y60.391 J-2.583
G2 X45.657 Y54.626 I-11.779 J9.151
X39.976 Y55.809 I0.073 J14.592
X39.039 Y57.292 I0.61 J1.423
G3 X38.252 Y58.86 I-1.813 J0.072
G2 X36.117 Y60.677 I7.616 J11.113
X35.453 Y61.517 I4.205 J4.008
G3 X34.857 Y62.407 I-34.605 J-22.522
X33.455 Y63.144 I-1.403 J-0.966
G1 X30.419
G3 X30.055 Y62.366 J-0.474
G2 X31.336 Y60.544 I-10.479 J-8.733
X32.198 Y58.49 I-7.177 J-4.218
X32.573 Y55.406 I-10.609 J-2.855
G3 X32.54 Y52.298 I149.066 J-3.116
G2 X31.926 Y49.027 I-9.031 J0.001
X30.29 Y46.128 I-10.871 J4.226
G3 X30.289 Y44.573 I1.008 J-0.778
G2 X31.708 Y42.23 I-9.703 J-7.478
X32.464 Y39.598 I-8.162 J-3.769
G1 X32.406 Y27.519
G3 X33.369 Y26.556 I0.963
G1 X33.767
G3 X34.823 Y27.119 J1.273
G2 X36.28 Y29.043 I17.795 J-11.959
X38.046 Y30.687 I7.884 J-6.699
X56.485 Y27.612 I7.721 J-10.528
G3 X58.502 Y26.556 I2.017 J1.397
G1 X91.868
G3 X93.785 Y27.576 J2.311
G2 X95.232 Y29.327 I9.652 J-6.503
X96.985 Y30.773 I8.663 J-8.716
G3 X97.994 Y32.679 I-1.296 J1.906
G1 Y57.021
G3 X96.979 Y58.931 I-2.304
G2 X93.785 Y62.124 I6.638 J9.835
G3 X91.868 Y63.144 I-1.917 J-1.291
G1 X58.571
G3 X56.581 Y62.101 J-2.42
G2 X46.687 Y56.526 I-10.683 J7.393
X38.252 Y58.86 I-0.819 J13.448
X37.587 Y60.762 I0.962 J1.403
G3 X37.216 Y62.742 I-2.077 J0.636
G2 X36.166 Y64.302 I9.931 J7.821
G3 X34.498 Y65.271 I-1.668 J-0.951
G1 X29.249
G3 X28.024 Y64.751 J-1.703
G2 X26.622 Y63.588 I-5.933 J5.73
G3 X26.625 Y62.609 I0.321 J-0.489
G2 X28.817 Y60.599 I-4.879 J-7.521
X30.144 Y57.938 I-5.915 J-4.611
X30.464 Y55.127 I-9.176 J-2.469
G3 X30.414 Y52.299 I78.816 J-2.833
G2 X29.452 Y48.613 I-7.544
X26.903 Y45.782 I-7.53 J4.217
G3 X26.902 Y44.92 I0.305 J-0.432
G2 X29.213 Y42.486 I-5.093 J-7.15
X30.355 Y39.329 I-6.481 J-4.128
G1 X30.279 Y25.393
G3 X31.242 Y24.429 I0.963
G1 X34.537
G3 X36.233 Y25.388 J1.98
G2 X38.753 Y28.442 I11.504 J-6.925
X42.167 Y30.447 I6.602 J-7.333
X49.102 Y30.58 I3.674 J-10.76
X54.715 Y26.504 I-3.007 J-10.045
X55.073 Y25.957 I-9.882 J-6.844
X55.411 Y25.397 I-38.619 J-23.746
G3 X57.113 Y24.429 I1.702 J1.013
G1 X93.23
G3 X94.919 Y25.391 J1.964
G2 X96.224 Y27.263 I13.477 J-8.002
X97.867 Y28.848 I7.288 J-5.913
X98.504 Y29.258 I3.083 J-4.094
G3 X99.163 Y29.633 I-8.825 J16.259
X100.121 Y31.319 I-1.007 J1.687
G1 Y58.381
G3 X99.163 Y60.067 I-1.964
G2 X97.426 Y61.253 I8.883 J14.877
X95.917 Y62.72 I5.796 J7.471
X95.387 Y63.497 I4.088 J3.36
G3 X94.917 Y64.312 I-32.34 J-18.09
X93.234 Y65.271 I-1.683 J-0.998
G1 X57.152
G3 X55.484 Y64.302 J-1.92
G2 X49.767 Y59.325 I-9.975 J5.688
X42.191 Y59.119 I-4.068 J10.185
X38.702 Y61.157 I3.205 J9.493
X37.216 Y62.742 I8.445 J9.406
X37.183 Y64.707 I1.275 J1.004
G3 X37.063 Y66.668 I-1.238 J0.908
X35.898 Y67.171 I-1.164 J-1.096
G1 X28.873
G3 X26.819 Y66.245 J-2.742
G2 X24.867 Y64.751 I-4.782 J4.228
X22.491 Y64.125 I-2.722 J5.503
X21.617 Y64.135 I-0.358 J6.351
G3 X20.744 Y64.171 I-0.878 J-10.795
X19.792 Y63.22 J-0.951
G1 Y62.961
G3 X20.723 Y62.029 I0.932
G1 X22.834 Y62.026
G2 X24.876 Y61.563 I-0.005 J-4.756
X27.278 Y59.6 I-2.807 J-5.886
X28.452 Y56.728 I-4.868 J-3.666
X28.629 Y54.148 I-20.594 J-2.707
X28.465 Y51.567 I-18.618 J-0.113
X27.106 Y48.394 I-6.377 J0.853
X24.28 Y46.411 I-4.822 J3.868
X22.457 Y46.14 I-1.651 J4.839
G3 X20.614 Y46.172 I-1.865 J-55.452
X19.792 Y45.351 I-0.001 J-0.822
X20.613 Y44.528 I0.822 J-0.001
X22.771 Y44.535 I0.277 J259.634
G2 X24.878 Y44.066 I0.035 J-4.812
X27.516 Y41.755 I-2.786 J-5.842
X28.514 Y38.391 I-5.169 J-3.363
G1 X28.379 Y23.493
G3 X29.342 Y22.529 I0.963
G1 X35.939
G3 X37.433 Y23.542 J1.607
G2 X45.818 Y29.257 I8.423 J-3.35
X54.211 Y23.553 I0.037 J-8.971
G3 X55.71 Y22.529 I1.498 J0.586
G1 X94.672
G3 X96.116 Y23.522 J1.547
G2 X101.032 Y28.437 I7.975 J-3.062
G3 X102.021 Y29.879 I-0.559 J1.443
G1 Y59.821
G3 X101.032 Y61.263 I-1.547
G2 X96.112 Y66.185 I3.111 J8.029
G3 X94.668 Y67.171 I-1.445 J-0.566
G1 X55.751
G3 X54.268 Y66.163 J-1.595
G2 X45.835 Y60.393 I-8.496 J3.368
X37.391 Y66.146 I-0.062 J8.983
G3 X37.063 Y66.668 I-1.492 J-0.575
G2 X36.54 Y68.208 I1.426 J1.343
G3 X35.449 Y69.414 I-1.09 J0.11
G1 X27.175
G3 X25.679 Y68.51 J-1.69
G2 X22.604 Y66.285 I-3.777 J1.983
X18.841 Y66.788 I-1.063 J6.377
X18.598 Y66.923 I0.74 J1.612
G3 X18.366 Y67.076 I-17.863 J-26.813
X17.548 Y66.634 I-0.289 J-0.442
G1 Y59.521
G3 X18.339 Y59.106 I0.504
G2 X20.543 Y59.92 I2.704 J-3.929
X22.891 Y59.861 I0.947 J-8.975
X26.21 Y56.488 I-0.617 J-3.927
X26.227 Y51.757 I-17.228 J-2.426
X25.312 Y49.726 I-3.857 J0.516
X23.466 Y48.481 I-3.223 J2.789
X20.847 Y48.192 I-1.959 J5.742
X18.365 Y49.077 I0.618 J5.656
G3 X17.549 Y48.634 I-0.288 J-0.443
G1 X17.55 Y42.022
G3 X18.34 Y41.606 I0.504
G2 X20.543 Y42.42 I2.704 J-3.931
X22.891 Y42.361 I0.947 J-8.974
X24.939 Y41.36 I-0.601 J-3.824
X26.128 Y39.416 I-2.938 J-3.132
X26.271 Y38.391 I-3.52 J-1.013
G1 X26.136 Y21.249
G3 X27.099 Y20.286 I0.963
G1 X37.916
G3 X39.033 Y21.233 J1.132
G2 X45.83 Y26.961 I6.754 J-1.118
X52.618 Y21.224 I-0.043 J-6.936
G3 X53.735 Y20.286 I1.117 J0.196
G1 X96.656
G3 X97.759 Y21.233 J1.115
G2 X99.62 Y24.926 I6.586 J-1.005
X103.311 Y26.79 I4.653 J-4.625
G3 X104.264 Y27.895 I-0.164 J1.105
G1 Y61.805
G3 X103.311 Y62.91 I-1.117
G2 X99.617 Y64.762 I0.971 J6.545
X97.762 Y68.454 I4.59 J4.619
G3 X96.653 Y69.414 I-1.109 J-0.159
G1 X53.745
G3 X52.632 Y68.441 J-1.123
G2 X49.346 Y63.594 I-6.515 J0.879
X43.516 Y63.045 I-3.53 J6.261
X40.498 Y65.102 I2.171 J6.429
X39.018 Y68.441 I5.001 J4.214
G3 X37.905 Y69.414 I-1.113 J-0.15
G1 X35.449
G2 X33.688 Y70.588 J1.908
G3 X31.927 Y71.762 I-1.761 J-0.734
G1 X23.858
X23.787 Y71.692
Y70.323
G2 X23.782 Y70.23 I-0.794
G1 X23.766 Y70.098
G2 X23.742 Y69.979 I-0.788 J0.093
G1 X23.713 Y69.873
G2 X23.673 Y69.762 I-0.765 J0.212
G1 X23.622 Y69.648
G2 X23.571 Y69.551 I-0.725 J0.323
G1 X23.522 Y69.472
G2 X23.465 Y69.392 I-0.674 J0.42
G1 X23.401 Y69.313
G2 X23.327 Y69.233 I-0.617 J0.499
G1 X23.242 Y69.154
G2 X23.16 Y69.087 I-0.543 J0.579
G1 X23.081 Y69.03
G2 X23.002 Y68.981 I-0.461 J0.646
G1 X22.923 Y68.937
G2 X22.824 Y68.892 I-0.381 J0.696
G1 X22.705 Y68.846
G2 X22.585 Y68.811 I-0.283 J0.742
G1 X22.466 Y68.786
G2 X22.348 Y68.77 I-0.163 J0.777
G1 X22.229 Y68.764
G2 X22.184 Y68.762 I-0.045 J0.792
G1 X20.517 Y68.763
G2 X20.425 Y68.769 J0.794
G1 X20.306 Y68.783
G2 X20.186 Y68.806 I0.092 J0.788
G1 X20.067 Y68.839
G2 X19.948 Y68.883 I0.212 J0.765
G1 X19.829 Y68.937
G2 X19.732 Y68.99 I0.331 J0.721
G1 X19.658 Y69.038
G2 X19.582 Y69.093 I0.428 J0.669
G1 X19.504 Y69.156
G2 X19.427 Y69.229 I0.504 J0.613
G1 X19.351 Y69.311
G2 X19.285 Y69.392 I0.581 J0.541
G1 X19.229 Y69.472
G2 X19.179 Y69.551 I0.647 J0.459
G1 X19.136 Y69.63
G2 X19.093 Y69.723 I0.697 J0.38
G1 X19.077 Y69.763
X15.2
Y56.437
X19.076
X19.079 Y56.445
X19.13 Y56.558
G2 X19.18 Y56.651 I0.724 J-0.326
G1 X19.227 Y56.727
G2 X19.281 Y56.802 I0.674 J-0.42
G1 X19.341 Y56.878
G2 X19.405 Y56.948 I0.62 J-0.495
G1 X19.472 Y57.014
G2 X19.551 Y57.083 I0.556 J-0.566
G1 X19.644 Y57.152
G2 X19.73 Y57.209 I0.477 J-0.634
G1 X19.809 Y57.253
G2 X19.908 Y57.301 I0.39 J-0.691
G1 X20.027 Y57.348
G2 X20.147 Y57.384 I0.292 J-0.738
G1 X20.266 Y57.411
G2 X20.366 Y57.426 I0.172 J-0.775
G1 X20.445 Y57.434
G2 X20.518 Y57.437 I0.072 J-0.79
G1 X22.264 Y57.435
G2 X22.387 Y57.425 I-0.001 J-0.794
G1 X22.506 Y57.407
G2 X22.625 Y57.378 I-0.123 J-0.784
G1 X22.744 Y57.34
G2 X22.843 Y57.301 I-0.243 J-0.756
G1 X22.923 Y57.263
G2 X23.002 Y57.219 I-0.342 J-0.716
G1 X23.081 Y57.169
G2 X23.168 Y57.107 I-0.421 J-0.673
G1 X23.26 Y57.03
G2 X23.342 Y56.951 I-0.508 J-0.61
G1 X23.414 Y56.872
G2 X23.477 Y56.792 I-0.59 J-0.531
G1 X23.532 Y56.713
G2 X23.58 Y56.634 I-0.653 J-0.452
G1 X23.622 Y56.554
G2 X23.659 Y56.475 I-0.701 J-0.372
G1 X23.69 Y56.396
G2 X23.719 Y56.309 I-0.738 J-0.293
G1 X23.744 Y56.215
G2 X23.765 Y56.112 I-0.766 J-0.206
G1 X23.779 Y56.001
G2 X23.786 Y55.897 I-0.787 J-0.103
G1 Y52.299
G2 X23.779 Y52.194 I-0.794
G1 X23.764 Y52.086
G2 X23.743 Y51.979 I-0.787 J0.105
G1 X23.714 Y51.875
G2 X23.677 Y51.77 I-0.765 J0.212
G1 X23.631 Y51.666
G2 X23.576 Y51.561 I-0.728 J0.317
G1 X23.51 Y51.456
G2 X23.446 Y51.367 I-0.673 J0.421
G1 X23.383 Y51.293
G2 X23.313 Y51.22 I-0.608 J0.511
G1 X23.236 Y51.148
G2 X23.148 Y51.078 I-0.538 J0.584
G1 X23.052 Y51.012
G2 X22.955 Y50.954 I-0.451 J0.653
G1 X22.858 Y50.906
G2 X22.761 Y50.866 I-0.354 J0.711
G1 X22.664 Y50.833
G2 X22.563 Y50.805 I-0.256 J0.751
G1 X22.459 Y50.785
G2 X22.348 Y50.77 I-0.156 J0.778
G1 X22.229 Y50.764
G2 X22.184 Y50.763 I-0.045 J0.792
G1 X20.517
G2 X20.427 Y50.768 J0.794
G1 X20.311 Y50.782
G2 X20.199 Y50.803 I0.091 J0.789
G1 X20.091 Y50.831
G2 X19.982 Y50.869 I0.203 J0.767
G1 X19.873 Y50.915
G2 X19.765 Y50.972 I0.312 J0.73
G1 X19.657 Y51.039
G2 X19.561 Y51.11 I0.42 J0.673
G1 X19.474 Y51.184
G2 X19.395 Y51.263 I0.517 J0.602
G1 X19.321 Y51.346
G2 X19.26 Y51.426 I0.597 J0.523
G1 X19.209 Y51.501
G2 X19.161 Y51.582 I0.658 J0.444
G1 X19.117 Y51.669
G2 X19.076 Y51.763 I0.706 J0.363
G1 X15.2
X15.201 Y38.938
X19.078
X19.106 Y39.006
G2 X19.156 Y39.107 I0.736 J-0.298
G1 X19.202 Y39.187
G2 X19.257 Y39.269 I0.686 J-0.399
G1 X19.321 Y39.354
G2 X19.395 Y39.437 I0.631 J-0.481
G1 X19.477 Y39.519
G2 X19.562 Y39.591 I0.558 J-0.565
G1 X19.647 Y39.655
G2 X19.73 Y39.709 I0.473 J-0.637
G1 X19.809 Y39.753
G2 X19.908 Y39.801 I0.39 J-0.691
G1 X20.027 Y39.848
G2 X20.147 Y39.884 I0.292 J-0.738
G1 X20.266 Y39.911
G2 X20.366 Y39.926 I0.172 J-0.775
G1 X20.445 Y39.934
G2 X20.518 Y39.937 I0.072 J-0.79
G1 X22.264 Y39.935
G2 X22.387 Y39.925 I-0.001 J-0.794
G1 X22.506 Y39.907
G2 X22.625 Y39.878 I-0.123 J-0.784
G1 X22.744 Y39.84
G2 X22.843 Y39.801 I-0.243 J-0.756
G1 X22.923 Y39.763
G2 X23.01 Y39.714 I-0.342 J-0.716
G1 X23.104 Y39.654
G2 X23.191 Y39.589 I-0.429 J-0.668
G1 X23.271 Y39.521
G2 X23.351 Y39.442 I-0.516 J-0.603
G1 X23.43 Y39.351
G2 X23.496 Y39.266 I-0.596 J-0.524
G1 X23.548 Y39.187
G2 X23.604 Y39.088 I-0.662 J-0.439
G1 X23.661 Y38.969
G2 X23.706 Y38.849 I-0.717 J-0.34
G1 X23.74 Y38.729
G2 X23.765 Y38.609 I-0.763 J-0.22
G1 X23.78 Y38.492
G2 X23.786 Y38.391 I-0.787 J-0.1
G1 X23.787 Y18.008
X23.858 Y17.938
X41.238
Y19.888
G2 X41.244 Y19.983 I0.794
G1 X41.345 Y20.815
G2 X41.368 Y20.932 I0.788 J-0.096
G1 X41.401 Y21.051
G2 X41.424 Y21.121 I0.765 J-0.212
G1 X41.695 Y21.834
G2 X41.724 Y21.9 I0.742 J-0.282
G1 X41.762 Y21.979
G2 X41.817 Y22.074 I0.713 J-0.348
G1 X41.977 Y22.312
G2 X41.983 Y22.32 I0.659 J-0.443
G1 X42.291 Y22.766
G2 X42.341 Y22.831 I0.653 J-0.452
G1 X42.411 Y22.913
G2 X42.486 Y22.989 I0.602 J-0.517
G1 X43.085 Y23.522
G2 X43.143 Y23.569 I0.527 J-0.593
G1 X43.223 Y23.627
G2 X43.316 Y23.686 I0.469 J-0.64
G1 X43.596 Y23.836
G2 X43.605 Y23.841 I0.376 J-0.699
G1 X44.08 Y24.088
G2 X44.189 Y24.135 I0.366 J-0.704
G1 X44.309 Y24.175
G2 X44.376 Y24.195 I0.256 J-0.751
G1 X45.13 Y24.38
G2 X45.234 Y24.398 I0.189 J-0.771
G1 X45.353 Y24.411
G2 X45.439 Y24.415 I0.085 J-0.789
G1 X46.233 Y24.414
G2 X46.317 Y24.41 I-0.001 J-0.794
G1 X46.396 Y24.401
G2 X46.499 Y24.383 I-0.085 J-0.789
G1 X47.292 Y24.19
G2 X47.381 Y24.163 I-0.188 J-0.771
G1 X47.5 Y24.119
G2 X47.593 Y24.077 I-0.276 J-0.744
G1 X48.307 Y23.702
G2 X48.387 Y23.654 I-0.369 J-0.703
G1 X48.467 Y23.599
G2 X48.543 Y23.54 I-0.449 J-0.654
G1 X49.131 Y23.021
G2 X49.164 Y22.99 I-0.525 J-0.595
G1 X49.211 Y22.943
G2 X49.254 Y22.897 I-0.559 J-0.564
G1 X49.294 Y22.85
G2 X49.345 Y22.785 I-0.602 J-0.517
G1 X49.803 Y22.123
G2 X49.843 Y22.058 I-0.653 J-0.452
G1 X49.888 Y21.979
G2 X49.935 Y21.879 I-0.693 J-0.388
G1 X50.074 Y21.523
X50.077 Y21.514
X50.24 Y21.078
G2 X50.272 Y20.971 I-0.743 J-0.279
G1 X50.298 Y20.852
G2 X50.312 Y20.774 I-0.775 J-0.172
G1 X50.406 Y19.982
G2 X50.412 Y19.888 I-0.788 J-0.094
G1 Y17.938
X99.988
Y20.007
G2 X99.993 Y20.094 I0.794
G1 X100.076 Y20.847
G2 X100.087 Y20.916 I0.789 J-0.087
G1 X100.103 Y20.995
G2 X100.13 Y21.096 I0.778 J-0.157
G1 X100.266 Y21.492
X100.269 Y21.501
X100.396 Y21.858
G2 X100.434 Y21.947 I0.748 J-0.266
G1 X100.473 Y22.026
G2 X100.512 Y22.094 I0.71 J-0.355
G1 X100.919 Y22.74
G2 X100.977 Y22.82 I0.671 J-0.424
G1 X101.031 Y22.885
G2 X101.083 Y22.943 I0.613 J-0.504
G1 X101.619 Y23.478
G2 X101.702 Y23.55 I0.561 J-0.562
G1 X101.8 Y23.624
G2 X101.857 Y23.663 I0.477 J-0.634
G1 X102.478 Y24.051
G2 X102.563 Y24.097 I0.421 J-0.673
G1 X102.642 Y24.134
G2 X102.716 Y24.164 I0.336 J-0.719
G1 X103.431 Y24.413
G2 X103.516 Y24.438 I0.261 J-0.749
G1 X103.596 Y24.456
G2 X103.682 Y24.471 I0.176 J-0.774
G1 X104.436 Y24.556
G2 X104.525 Y24.561 I0.089 J-0.789
G1 X106.613 Y24.564
Y65.136
X104.525 Y65.139
G2 X104.436 Y65.144 I0.001 J0.794
G1 X103.682 Y65.229
G2 X103.596 Y65.244 I0.089 J0.789
G1 X103.516 Y65.262
G2 X103.431 Y65.287 I0.176 J0.774
G1 X102.716 Y65.536
G2 X102.642 Y65.566 I0.261 J0.749
G1 X102.563 Y65.603
G2 X102.477 Y65.65 I0.336 J0.719
G1 X101.823 Y66.06
G2 X101.734 Y66.125 I0.422 J0.672
G1 X101.636 Y66.207
G2 X101.585 Y66.254 I0.51 J0.608
G1 X101.082 Y66.758
G2 X101.031 Y66.815 I0.562 J0.561
G1 X100.977 Y66.88
G2 X100.919 Y66.96 I0.613 J0.504
G1 X100.512 Y67.606
G2 X100.464 Y67.693 I0.671 J0.424
G1 X100.408 Y67.812
G2 X100.378 Y67.886 I0.719 J0.336
G1 X100.156 Y68.52
G2 X100.142 Y68.566 I0.749 J0.262
G1 X100.108 Y68.685
G2 X100.084 Y68.809 I0.764 J0.216
G1 X99.996 Y69.562
G2 X99.991 Y69.622 I0.788 J0.092
G1 X99.988 Y69.701
G2 Y69.733 I0.793 J0.032
G1 Y71.762
X50.412
Y69.693
G2 X50.406 Y69.599 I-0.794
G1 X50.306 Y68.767
G2 X50.29 Y68.676 I-0.788 J0.095
G1 X50.271 Y68.596
G2 X50.242 Y68.503 I-0.772 J0.186
G1 X50.004 Y67.869
G2 X49.999 Y67.855 I-0.743 J0.279
G1 X49.936 Y67.697
G2 X49.894 Y67.608 I-0.738 J0.293
G1 X49.851 Y67.529
G2 X49.807 Y67.459 I-0.696 J0.382
G1 X49.345 Y66.79
G2 X49.278 Y66.707 I-0.653 J0.452
G1 X49.205 Y66.627
G2 X49.145 Y66.567 I-0.586 J0.535
G1 X48.548 Y66.039
G2 X48.463 Y65.974 I-0.526 J0.595
G1 X48.358 Y65.903
G2 X48.284 Y65.86 I-0.441 J0.66
G1 X47.576 Y65.49
G2 X47.478 Y65.447 I-0.367 J0.704
G1 X47.373 Y65.409
G2 X47.292 Y65.385 I-0.269 J0.747
G1 X46.499 Y65.192
G2 X46.396 Y65.174 I-0.188 J0.771
G1 X46.317 Y65.165
G2 X46.23 Y65.161 I-0.085 J0.789
G1 X45.397 Y65.162
G2 X45.273 Y65.172 I0.001 J0.794
G1 X45.154 Y65.191
G2 X45.089 Y65.204 I0.125 J0.784
G1 X44.375 Y65.38
G2 X44.311 Y65.399 I0.19 J0.771
G1 X44.197 Y65.437
G2 X44.084 Y65.485 I0.254 J0.752
G1 X43.367 Y65.859
G2 X43.3 Y65.898 I0.367 J0.704
G1 X43.209 Y65.957
G2 X43.118 Y66.027 I0.434 J0.665
G1 X42.509 Y66.564
G2 X42.459 Y66.612 I0.525 J0.595
G1 X42.403 Y66.67
G2 X42.336 Y66.751 I0.575 J0.548
G1 X42.228 Y66.899
G2 X42.216 Y66.916 I0.642 J0.467
G1 X41.842 Y67.46
G2 X41.799 Y67.529 I0.654 J0.45
G1 X41.756 Y67.608
G2 X41.711 Y67.704 I0.696 J0.382
G1 X41.528 Y68.18
X41.525 Y68.188
X41.407 Y68.505
G2 X41.379 Y68.596 I0.744 J0.277
G1 X41.36 Y68.676
G2 X41.344 Y68.767 I0.772 J0.186
G1 X41.244 Y69.599
G2 X41.238 Y69.693 I0.788 J0.095
G1 Y71.762
X31.927
G3 X31.857 Y71.755 Z-1.973 J-0.317 F400
X31.793 Y71.733 Z-1.95 I0.07 J-0.31
X31.741 Y71.703 Z-1.912 I0.133 J-0.288
X31.703 Y71.67 Z-1.862 I0.185 J-0.258
X31.678 Y71.642 Z-1.802 I0.224 J-0.225
X31.664 Y71.623 Z-1.735 I0.249 J-0.197
G1 X31.66 Y71.617 Z-1.664
G0 Z5
X17.541 Y67.615
Z2.019
G1 Z-2.664 F333.3
X17.548 Y67.619 Z-2.735
G3 X17.567 Y67.633 Z-2.802 I-0.178 J0.263
X17.595 Y67.658 Z-2.862 I-0.197 J0.249
X17.627 Y67.696 Z-2.912 I-0.225 J0.224
X17.658 Y67.748 Z-2.95 I-0.258 J0.185
X17.679 Y67.812 Z-2.973 I-0.288 J0.133
X17.687 Y67.882 Z-2.981 I-0.31 J0.07
G1 Y67.959 F700
G3 X17.159 Y68.488 I-0.528
G1 X17.004
G3 X16.476 Y67.959 J-0.528
G1 Y58.318
G3 X17.687 I0.606
G1 Y67.882
G2 X18.22 Y68.763 I0.995
G3 X17.973 Y69.763 I-0.246 J0.47
G1 X15.2
Y56.437
X18.962
Y69.763
X17.973
G3 X17.903 Y69.755 Z-2.973 J-0.318 F400
X17.84 Y69.733 Z-2.95 I0.07 J-0.31
X17.788 Y69.703 Z-2.912 I0.133 J-0.288
X17.75 Y69.671 Z-2.862 I0.185 J-0.258
X17.724 Y69.643 Z-2.802 I0.224 J-0.225
X17.711 Y69.624 Z-2.735 I0.249 J-0.197
G1 X17.706 Y69.617 Z-2.664
G0 Z5
X17.541 Y49.615
Z2.019
G1 Z-2.664 F333.3
X17.548 Y49.619 Z-2.735
G3 X17.567 Y49.633 Z-2.802 I-0.178 J0.263
X17.595 Y49.658 Z-2.862 I-0.197 J0.249
X17.627 Y49.697 Z-2.912 I-0.225 J0.224
X17.658 Y49.749 Z-2.95 I-0.258 J0.185
X17.679 Y49.812 Z-2.973 I-0.288 J0.133
X17.687 Y49.882 Z-2.981 I-0.31 J0.07
G1 Y49.959 F700
G3 X17.159 Y50.488 I-0.528
G1 X17.004
G3 X16.476 Y49.959 J-0.528
G1 X16.477 Y41.007
G3 X17.687 I0.605
G1 Y49.882
G2 X18.22 Y50.763 I0.995
G3 X17.974 Y51.763 I-0.246 J0.47
G1 X15.2
X15.201 Y38.938
X18.962
Y51.763
X17.974
G3 X17.903 Y51.755 Z-2.973 J-0.318 F400
X17.84 Y51.733 Z-2.95 I0.07 J-0.31
X17.788 Y51.703 Z-2.912 I0.133 J-0.288
X17.75 Y51.671 Z-2.862 I0.185 J-0.258
X17.725 Y51.643 Z-2.802 I0.224 J-0.225
X17.711 Y51.624 Z-2.735 I0.249 J-0.197
G1 X17.706 Y51.617 Z-2.664
G0 Z5
X63.222 Y44.229
Z2.019
G1 Z-2.664 F333.3
X63.226 Y44.223 Z-2.735
G3 X63.24 Y44.204 Z-2.802 I0.263 J0.178
X63.265 Y44.176 Z-2.862 I0.249 J0.197
X63.303 Y44.143 Z-2.912 I0.224 J0.225
X63.355 Y44.113 Z-2.95 I0.185 J0.258
X63.419 Y44.091 Z-2.973 I0.133 J0.288
X63.489 Y44.084 Z-2.981 I0.07 J0.31
G1 X79.757 F700
G3 X80.466 Y44.793 J0.71
G1 Y44.907
G3 X79.757 Y45.616 I-0.71
G1 X63.471
G3 X63.06 Y45.485 J-0.71
G2 X62.816 Y45.314 I-15.038 J21.149
G3 Y44.262 I0.365 J-0.526
G1 X62.933 Y44.18
G3 X63.237 Y44.084 I0.304 J0.432
G1 X63.489
G2 X65.046 Y43.045 J-1.687
G3 X66.604 Y42.007 I1.557 J0.649
G1 X81.58
G3 X82.543 Y42.97 J0.963
G1 Y46.73
G3 X81.58 Y47.693 I-0.963
G1 X63.307
G3 X61.977 Y47.264 J-2.275
G2 X60.368 Y46.201 I-13.95 J19.363
X58.688 Y45.256 I-16.041 J26.548
G3 X58.687 Y44.32 I0.245 J-0.468
G2 X60.283 Y43.425 I-15.656 J-29.792
X61.817 Y42.426 I-12.017 J-20.129
G3 X63.132 Y42.007 I1.315 J1.857
G1 X66.604
G2 X68.046 Y41.045 J-1.563
G3 X69.489 Y40.084 I1.442 J0.601
G1 X83.503
G3 X84.466 Y41.047 J0.963
G1 Y48.653
G3 X83.503 Y49.616 I-0.963
G1 X63.261
G3 X60.884 Y48.847 J-4.057
G2 X53.49 Y45.155 I-14.919 J20.632
G3 Y44.42 I0.112 J-0.368
G2 X57.258 Y42.92 I-7.066 J-23.24
X60.736 Y40.834 I-11.627 J-23.332
G3 X63.087 Y40.084 I2.351 J3.306
G1 X69.489
G2 X70.712 Y39.268 J-1.326
G3 X71.936 Y38.452 I1.224 J0.51
G1 X85.134
G3 X86.098 Y39.416 J0.963
G1 Y50.284
G3 X85.134 Y51.248 I-0.963
G1 X63.094
G3 X60.034 Y50.246 J-5.175
G2 X53.488 Y46.817 I-14.622 J19.948
X46.198 Y45.599 I-7.253 J20.996
X45.611 Y45.617 I0.017 J9.952
G3 X45.025 Y45.641 I-0.842 J-13.862
X44.302 Y44.931 I-0.013 J-0.71
G1 Y44.645
G3 X45.026 Y43.936 I0.71
G2 X49.689 Y43.698 I0.665 J-32.815
X54.225 Y42.594 I-2.441 J-19.894
X57.15 Y41.211 I-6.557 J-17.657
X59.865 Y39.452 I-17.151 J-29.438
G3 X62.971 Y38.452 I3.106 J4.327
G1 X71.936
G2 X73.253 Y37.574 J-1.427
G3 X74.571 Y36.695 I1.318 J0.549
G1 X86.891
G3 X87.855 Y37.659 J0.963
G1 Y52.041
G3 X86.891 Y53.005 I-0.963
G1 X62.358
G3 X59.443 Y52.002 J-4.737
G2 X51.829 Y48.177 I-13.377 J17.138
X43.334 Y47.509 I-5.984 J21.768
G3 X42.545 Y46.804 I-0.079 J-0.705
G1 Y42.913
G3 X43.473 Y42.079 I0.839
G2 X51.801 Y41.404 I2.38 J-22.353
X59.287 Y37.693 I-5.783 J-21.075
G3 X62.237 Y36.695 I2.95 J3.86
G1 X74.571
G2 X76.256 Y35.572 J-1.826
G3 X77.941 Y34.449 I1.685 J0.702
G1 X89.138
G3 X90.101 Y35.412 J0.963
G1 Y54.288
G3 X89.138 Y55.251 I-0.963
G1 X61.441
G3 X58.588 Y54.203 J-4.405
G2 X50.383 Y50.094 I-12.487 J14.691
X41.206 Y50.176 I-4.417 J19.391
G3 X40.299 Y49.464 I-0.175 J-0.711
G1 Y40.111
G3 X41.207 Y39.399 I0.734
G2 X57.28 Y36.432 I4.737 J-19.363
X57.879 Y35.972 I-3.942 J-5.74
G3 X58.455 Y35.484 I30.572 J35.547
X61.317 Y34.449 I2.862 J3.438
G1 X77.941
G2 X79.574 Y33.36 J-1.769
G3 X81.207 Y32.271 I1.633 J0.68
G1 X90.439
G3 X92.279 Y34.111 J1.84
G1 Y55.587
G3 X90.437 Y57.429 I-1.842
G1 X60.488
G3 X57.805 Y56.413 J-4.049
G2 X55.096 Y54.314 I-17.466 J19.747
X52.04 Y52.763 I-7.73 J11.444
X45.407 Y51.73 I-5.989 J16.652
X38.859 Y53.205 I0.663 J18.218
G3 X38.121 Y52.719 I-0.209 J-0.485
G1 Y36.988
G3 X38.976 Y36.42 I0.616
G2 X46.466 Y37.882 I7.267 J-17.32
X53.864 Y36.01 I-0.193 J-16.317
X55.832 Y34.773 I-7.012 J-13.343
X57.638 Y33.31 I-16.32 J-22.001
G3 X60.384 Y32.271 I2.746 J3.111
G1 X81.207
G2 X82.75 Y31.243 J-1.671
G3 X84.293 Y30.214 I1.543 J0.643
G1 X90.958
G3 X94.336 Y33.592 J3.378
G1 Y56.11
G3 X90.96 Y59.486 I-3.376
G1 X59.465
G3 X57.042 Y58.502 J-3.475
G2 X52.683 Y55.358 I-12.816 J13.177
X47.538 Y53.808 I-6.703 J12.934
X41.966 Y54.265 I-1.591 J14.796
X36.888 Y56.607 I4.658 J16.777
G3 X36.064 Y56.168 I-0.295 J-0.438
G1 Y33.38
G3 X36.868 Y32.956 I0.514
G2 X46.611 Y35.785 I9.174 J-13.403
X56.036 Y32.03 I-0.527 J-15.03
X56.477 Y31.618 I-6.984 J-7.913
G3 X56.911 Y31.198 I19.119 J19.313
X59.381 Y30.214 I2.47 J2.608
G1 X84.293
G2 X85.725 Y29.26 J-1.551
G3 X87.156 Y28.305 I1.432 J0.597
G1 X91.942
G3 X94.17 Y29.281 J3.033
G2 X95.275 Y30.385 I14.256 J-13.16
G3 X96.245 Y32.602 I-2.05 J2.218
G1 Y57.092
G3 X95.264 Y59.326 I-3.034
G2 X94.17 Y60.419 I12.45 J13.547
G3 X91.942 Y61.395 I-2.228 J-2.057
G1 X58.425
G3 X56.24 Y60.424 J-2.944
G2 X45.394 Y55.723 I-10.586 J9.562
X34.861 Y61.088 I0.246 J13.506
G3 X34.155 Y60.851 I-0.313 J-0.237
G1 Y28.726
G3 X34.86 Y28.488 I0.393
G2 X50.693 Y33.081 I11.026 J-8.421
X53.632 Y31.501 I-4.234 J-11.403
X56.124 Y29.281 I-10.148 J-13.895
G3 X58.354 Y28.305 I2.23 J2.06
G1 X87.156
G2 X88.912 Y27.135 J-1.902
G3 X90.667 Y25.965 I1.755 J0.731
G1 X93.346
G3 X95.272 Y26.942 J2.387
G2 X96.355 Y28.2 I8.481 J-6.208
X97.616 Y29.282 I8.176 J-8.253
G3 X98.585 Y31.207 I-1.427 J1.925
G1 Y58.496
G3 X97.611 Y60.419 I-2.385
G2 X95.272 Y62.758 I6.462 J8.804
G3 X93.346 Y63.735 I-1.926 J-1.41
G1 X57.09
G3 X55.066 Y62.693 J-2.487
G2 X45.817 Y57.966 I-9.182 J6.552
X36.575 Y62.708 I0.069 J11.511
G3 X34.558 Y63.735 I-2.017 J-1.466
G1 X32.778
G3 X31.815 Y62.772 J-0.963
G1 Y26.928
G3 X32.778 Y25.965 I0.963
G1 X34.642
G3 X36.652 Y26.977 J2.502
G2 X45.161 Y31.493 I8.988 J-6.661
X54.146 Y28.018 I0.515 J-12.023
X54.589 Y27.518 I-3.57 J-3.603
X54.991 Y26.985 I-23.871 J-18.46
G3 X57.014 Y25.965 I2.023 J1.494
G1 X90.667
G2 X92.423 Y24.794 J-1.902
G3 X94.178 Y23.624 I1.755 J0.731
G1 X94.832
G3 X96.515 Y24.561 J1.98
G2 X97.319 Y25.755 I16.222 J-10.045
X98.255 Y26.848 I7.437 J-5.421
X99.09 Y27.491 I2.908 J-2.914
G3 X99.993 Y28.036 I-17.604 J30.212
X100.926 Y29.718 I-1.049 J1.682
G1 Y59.982
G3 X99.993 Y61.664 I-1.983
X99.272 Y62.092 I-10.13 J-16.24
G2 X98.583 Y62.57 I2.237 J3.963
X97.446 Y63.773 I4.629 J5.514
X96.514 Y65.141 I15.078 J11.273
G3 X94.836 Y66.076 I-1.679 J-1.038
G1 X55.542
G3 X53.889 Y65.13 J-1.918
G2 X50.927 Y61.908 I-8.96 J5.263
X46.833 Y60.361 I-5.025 J7.107
X41.594 Y61.408 I-0.953 J8.861
X37.761 Y65.13 I4.833 J8.812
G3 X36.108 Y66.076 I-1.653 J-0.971
G1 X30.437
G3 X29.474 Y65.113 J-0.963
G1 Y24.587
G3 X30.437 Y23.624 I0.963
G1 X36.137
G3 X37.831 Y24.559 J2.002
G2 X39.341 Y26.551 I12.299 J-7.752
X41.309 Y28.093 I5.431 J-4.905
X47.197 Y29.082 I4.403 J-8.198
X52.518 Y26.375 I-1.56 J-9.651
X53.219 Y25.509 I-3.594 J-3.628
X53.815 Y24.567 I-59.877 J-38.495
G3 X55.511 Y23.624 I1.696 J1.053
G1 X94.178
G2 X95.715 Y22.322 J-1.558
G3 X97.607 Y21.63 I1.142 J0.19
X98.04 Y22.264 I-0.943 J1.11
G2 X99.43 Y24.641 I6.673 J-2.306
X101.637 Y26.288 I5.076 J-4.5
X101.96 Y26.407 I0.874 J-1.874
G3 X102.289 Y26.51 I-1.396 J5.046
X103.267 Y27.887 I-0.48 J1.377
G1 Y61.813
G3 X102.289 Y63.19 I-1.458
G2 X100.372 Y64.141 I2.835 J8.128
X98.875 Y65.67 I2.814 J4.25
X98.407 Y66.532 I6.401 J4.04
X98.038 Y67.441 I9.231 J4.27
G3 X96.663 Y68.417 I-1.375 J-0.482
G1 X53.736
G3 X52.371 Y67.471 J-1.459
G2 X51.841 Y66.204 I-17.322 J6.504
X51.081 Y65.061 I-4.081 J1.889
X45.576 Y62.7 I-5.356 J4.889
X40.266 Y65.473 I0.138 J6.734
X39.705 Y66.437 I4.477 J3.255
X39.28 Y67.468 I14.322 J6.513
G3 X37.914 Y68.417 I-1.365 J-0.507
G1 X28.096
G3 X27.133 Y67.454 J-0.963
G1 Y22.246
G3 X28.096 Y21.283 I0.963
G1 X37.927
G3 X39.335 Y22.254 J1.506
G2 X39.821 Y23.385 I13.28 J-5.045
X40.495 Y24.415 I4.285 J-2.068
X45.655 Y26.818 I5.229 J-4.487
X50.93 Y24.679 I0.074 J-7.388
X51.753 Y23.544 I-3.044 J-3.072
X52.313 Y22.259 I-11.845 J-5.935
G3 X53.722 Y21.283 I1.408 J0.528
G1 X96.663
G3 X97.607 Y21.63 J1.456
G2 X99.677 Y22.649 I3.054 J-3.594
G3 X101.777 Y23.606 I-1.115 J5.226
G1 X101.8 Y23.624
G2 X101.857 Y23.663 I0.477 J-0.634
G1 X102.478 Y24.051
G2 X102.563 Y24.097 I0.421 J-0.673
G1 X102.642 Y24.134
G2 X102.716 Y24.164 I0.336 J-0.719
G1 X103.431 Y24.413
G2 X103.516 Y24.438 I0.261 J-0.749
G1 X103.596 Y24.456
G2 X103.682 Y24.471 I0.176 J-0.774
G1 X104.436 Y24.556
G2 X104.524 Y24.561 I0.089 J-0.789
G1 X105.622 Y24.563
Y65.137
X104.524 Y65.139
G2 X104.436 Y65.144 I0.002 J0.794
G1 X103.682 Y65.229
G2 X103.596 Y65.244 I0.089 J0.789
G1 X103.516 Y65.262
G2 X103.431 Y65.287 I0.176 J0.774
G1 X102.716 Y65.536
G2 X102.642 Y65.566 I0.261 J0.749
G1 X102.563 Y65.603
G2 X102.477 Y65.65 I0.336 J0.719
G1 X101.823 Y66.06
G2 X101.734 Y66.125 I0.422 J0.672
G1 X101.636 Y66.207
G2 X101.585 Y66.254 I0.51 J0.608
G1 X101.082 Y66.758
G2 X101.031 Y66.815 I0.562 J0.561
G1 X100.977 Y66.88
G2 X100.919 Y66.96 I0.613 J0.504
G1 X100.512 Y67.606
G2 X100.464 Y67.693 I0.671 J0.424
G1 X100.408 Y67.812
G2 X100.378 Y67.886 I0.719 J0.336
G1 X100.156 Y68.52
G2 X100.142 Y68.566 I0.749 J0.262
G1 X100.108 Y68.685
G2 X100.084 Y68.809 I0.764 J0.216
G1 X99.996 Y69.562
G2 X99.991 Y69.622 I0.788 J0.092
G1 X99.988 Y69.701
G2 Y69.733 I0.793 J0.032
G1 Y70.772
X50.412
Y69.693
G2 X50.406 Y69.599 I-0.794
G1 X50.306 Y68.767
G2 X50.29 Y68.676 I-0.788 J0.095
G1 X50.271 Y68.596
G2 X50.242 Y68.503 I-0.772 J0.186
G1 X50.004 Y67.869
G2 X49.999 Y67.855 I-0.743 J0.279
G1 X49.936 Y67.697
G2 X49.894 Y67.608 I-0.738 J0.293
G1 X49.851 Y67.529
G2 X49.807 Y67.459 I-0.696 J0.382
G1 X49.345 Y66.79
G2 X49.278 Y66.707 I-0.653 J0.452
G1 X49.205 Y66.627
G2 X49.145 Y66.567 I-0.586 J0.535
G1 X48.548 Y66.039
G2 X48.463 Y65.974 I-0.526 J0.595
G1 X48.358 Y65.903
G2 X48.284 Y65.86 I-0.441 J0.66
G1 X47.576 Y65.49
G2 X47.478 Y65.447 I-0.367 J0.704
G1 X47.373 Y65.409
G2 X47.292 Y65.385 I-0.269 J0.747
G1 X46.499 Y65.192
G2 X46.396 Y65.174 I-0.188 J0.771
G1 X46.317 Y65.165
G2 X46.23 Y65.161 I-0.085 J0.789
G1 X45.397 Y65.162
G2 X45.273 Y65.172 I0.001 J0.794
G1 X45.154 Y65.191
G2 X45.089 Y65.204 I0.125 J0.784
G1 X44.375 Y65.38
G2 X44.311 Y65.399 I0.19 J0.771
G1 X44.197 Y65.437
G2 X44.084 Y65.485 I0.254 J0.752
G1 X43.367 Y65.859
G2 X43.3 Y65.898 I0.367 J0.704
G1 X43.209 Y65.957
G2 X43.118 Y66.027 I0.434 J0.665
G1 X42.509 Y66.564
G2 X42.459 Y66.612 I0.525 J0.595
G1 X42.403 Y66.67
G2 X42.336 Y66.751 I0.575 J0.548
G1 X42.228 Y66.899
G2 X42.216 Y66.916 I0.642 J0.467
G1 X41.842 Y67.46
G2 X41.799 Y67.529 I0.654 J0.45
G1 X41.756 Y67.608
G2 X41.711 Y67.704 I0.696 J0.382
G1 X41.528 Y68.18
X41.525 Y68.188
X41.407 Y68.505
G2 X41.379 Y68.596 I0.744 J0.277
G1 X41.36 Y68.676
G2 X41.344 Y68.767 I0.772 J0.186
G1 X41.244 Y69.599
G2 X41.238 Y69.693 I0.788 J0.095
G1 Y70.772
X24.777
Y18.927
X41.238
Y19.888
G2 X41.244 Y19.983 I0.794
G1 X41.345 Y20.815
G2 X41.368 Y20.932 I0.788 J-0.096
G1 X41.401 Y21.051
G2 X41.424 Y21.121 I0.765 J-0.212
G1 X41.695 Y21.834
G2 X41.724 Y21.9 I0.742 J-0.282
G1 X41.762 Y21.979
G2 X41.817 Y22.074 I0.713 J-0.348
G1 X41.977 Y22.312
G2 X41.983 Y22.32 I0.659 J-0.443
G1 X42.291 Y22.766
G2 X42.341 Y22.831 I0.653 J-0.452
G1 X42.411 Y22.913
G2 X42.486 Y22.989 I0.602 J-0.517
G1 X43.085 Y23.522
G2 X43.143 Y23.569 I0.527 J-0.593
G1 X43.223 Y23.627
G2 X43.316 Y23.686 I0.469 J-0.64
G1 X43.596 Y23.836
G2 X43.605 Y23.841 I0.376 J-0.699
G1 X44.08 Y24.088
G2 X44.189 Y24.135 I0.366 J-0.704
G1 X44.309 Y24.175
G2 X44.376 Y24.195 I0.256 J-0.751
G1 X45.13 Y24.38
G2 X45.234 Y24.398 I0.189 J-0.771
G1 X45.353 Y24.411
G2 X45.439 Y24.415 I0.085 J-0.789
G1 X46.233 Y24.414
G2 X46.317 Y24.41 I-0.001 J-0.794
G1 X46.396 Y24.401
G2 X46.499 Y24.383 I-0.085 J-0.789
G1 X47.292 Y24.19
G2 X47.381 Y24.163 I-0.188 J-0.771
G1 X47.5 Y24.119
G2 X47.593 Y24.077 I-0.276 J-0.744
G1 X48.307 Y23.702
G2 X48.387 Y23.654 I-0.369 J-0.703
G1 X48.467 Y23.599
G2 X48.543 Y23.54 I-0.449 J-0.654
G1 X49.131 Y23.021
G2 X49.164 Y22.99 I-0.525 J-0.595
G1 X49.211 Y22.943
G2 X49.254 Y22.897 I-0.559 J-0.564
G1 X49.294 Y22.85
G2 X49.345 Y22.785 I-0.602 J-0.517
G1 X49.803 Y22.123
G2 X49.843 Y22.058 I-0.653 J-0.452
G1 X49.888 Y21.979
G2 X49.935 Y21.879 I-0.693 J-0.388
G1 X50.074 Y21.523
X50.077 Y21.514
X50.24 Y21.078
G2 X50.272 Y20.971 I-0.743 J-0.279
G1 X50.298 Y20.852
G2 X50.312 Y20.774 I-0.775 J-0.172
G1 X50.406 Y19.982
G2 X50.412 Y19.888 I-0.788 J-0.094
G1 Y18.927
X99.988
Y20.007
G2 X99.993 Y20.094 I0.794
G1 X100.076 Y20.847
G2 X100.087 Y20.916 I0.789 J-0.087
G1 X100.103 Y20.995
G2 X100.13 Y21.096 I0.778 J-0.157
G1 X100.266 Y21.492
X100.269 Y21.501
X100.396 Y21.858
G2 X100.434 Y21.947 I0.748 J-0.266
G1 X100.473 Y22.026
G2 X100.512 Y22.094 I0.71 J-0.355
G1 X100.919 Y22.74
G2 X100.977 Y22.82 I0.671 J-0.424
G1 X101.031 Y22.885
G2 X101.083 Y22.943 I0.613 J-0.504
G1 X101.619 Y23.478
G2 X101.702 Y23.55 I0.561 J-0.562
G1 X101.777 Y23.606
G3 X101.828 Y23.654 Z-2.973 I-0.191 J0.254 F400
X101.865 Y23.71 Z-2.95 I-0.242 J0.205
X101.889 Y23.765 Z-2.912 I-0.28 J0.15
X101.9 Y23.814 Z-2.862 I-0.303 J0.094
X101.903 Y23.852 Z-2.802 I-0.314 J0.045
Y23.875 Z-2.735 I-0.317 J0.008
G1 X101.902 Y23.883 Z-2.664
G0 Z5
X74.476 Y37.003
Z1.019
G1 Z-4.701 F333.3
X74.484 Y37.001 Z-4.772
G3 X74.507 Y36.995 Z-4.839 I0.084 J0.306
X74.544 Y36.99 Z-4.899 I0.062 J0.311
X74.594 Z-4.949 I0.024 J0.317
X74.654 Y37.001 Z-4.987 I-0.026 J0.316
X74.716 Y37.026 Z-5.011 I-0.085 J0.306
X74.774 Y37.065 Z-5.019 I-0.148 J0.281
G1 X75.324 Y37.533 F700
X75.545 Y37.773
X75.607 Y37.844
X75.864 Y38.224
X75.933 Y38.349
X76.1 Y38.733
X76.123 Y38.818
X76.185 Y39.097
X76.195 Y39.169
X76.199 Y39.376
X75.923 Y39.362
X75.822 Y39.345
X75.437 Y39.268
X74.962 Y39.118
X74.444 Y38.893
X73.993 Y38.636
X73.604 Y38.35
X73.027 Y37.792
X72.753 Y37.505
X72.523 Y37.23
X72.303 Y36.926
X72.161 Y36.669
X72.17 Y36.665
X72.542 Y36.586
X72.951 Y36.549
X72.981 Y36.548
X73.471 Y36.565
X73.493 Y36.568
X73.952 Y36.651
X74.35 Y36.795
X74.388 Y36.817
X74.722 Y37.021
X74.774 Y37.065
G3 X74.823 Y37.117 Z-5.011 I-0.206 J0.242 F400
X74.857 Y37.174 Z-4.987 I-0.254 J0.19
X74.877 Y37.231 Z-4.949 I-0.288 J0.133
X74.885 Y37.281 Z-4.899 I-0.308 J0.076
X74.886 Y37.318 Z-4.839 I-0.316 J0.026
X74.884 Y37.342 Z-4.772 I-0.317 J-0.011
G1 X74.883 Y37.35 Z-4.701
G0 Z5
X72.375 Y45.537
Z1.019
G1 Z-4.701 F333.3
X72.368 Y45.533 Z-4.772
G3 X72.349 Y45.519 Z-4.839 I0.175 J-0.265
X72.321 Y45.494 Z-4.899 I0.194 J-0.251
X72.288 Y45.456 Z-4.949 I0.222 J-0.227
X72.257 Y45.405 Z-4.987 I0.255 J-0.189
X72.234 Y45.342 Z-5.011 I0.286 J-0.137
X72.226 Y45.272 Z-5.019 I0.309 J-0.074
X72.279 Y44.891 I1.263 J-0.016 F700
X72.489 Y44.515 I0.963 J0.29
X72.911 Y44.429 I0.268 J0.237
X73.44 Y45.243 I-0.399 J0.838
X72.843 Y46.009 I-0.765 J0.02
X72.733 Y46.016 I-0.074 J-0.332
X72.627 Y45.986 I0.035 J-0.327
X72.25 Y45.503 I0.292 J-0.616
X72.226 Y45.272 I1.239 J-0.247
G2 X71.698 Y44.34 I-1.112 J0.014
G3 X71.583 Y43.275 I0.357 J-0.577
G1 X71.593 Y43.265
X71.97 Y43.034
X72.357 Y42.9
X72.778 Y42.856
X73.181 Y42.9
X73.574 Y43.036
X73.94 Y43.263
X74.272 Y43.584
X74.54 Y43.981
X74.732 Y44.446
X74.831 Y44.948
Y45.466
X74.732 Y45.967
X74.54 Y46.433
X74.271 Y46.831
X73.948 Y47.144
X73.573 Y47.379
X73.181 Y47.514
X72.778 Y47.558
X72.357 Y47.514
X71.966 Y47.379
X71.602 Y47.154
X71.265 Y46.831
X70.996 Y46.433
X70.804 Y45.967
X70.706 Y45.467
Y44.948
X70.805 Y44.446
X70.994 Y43.988
X71.266 Y43.582
X71.583 Y43.275
X71.593 Y43.265 Z-5.018 F400
X71.652 Y43.23 Z-5.008
X71.706 Y43.196 Z-4.983
X71.755 Y43.166 Z-4.944
X71.796 Y43.141 Z-4.894
X71.826 Y43.122 Z-4.835
X71.845 Y43.111 Z-4.77
X71.852 Y43.107 Z-4.701
G0 Z5
X66.222 Y40.893
Z1.019
G1 Z-4.701 F333.3
Y40.901 Z-4.772
G3 X66.221 Y40.924 Z-4.839 I-0.317
X66.216 Y40.962 Z-4.899 I-0.317 J-0.023
X66.203 Y41.01 Z-4.949 I-0.312 J-0.061
X66.177 Y41.064 Z-4.987 I-0.298 J-0.109
X66.136 Y41.118 Z-5.011 I-0.272 J-0.163
X66.083 Y41.164 Z-5.019 I-0.232 J-0.217
X65.519 Y41.456 I-1.516 J-2.232 F700
X65.003 Y40.698 I-0.167 J-0.441
X66.053 Y39.983 I2.018 J1.833
X66.571 Y40.738 I0.168 J0.44
X66.083 Y41.164 I-2.004 J-1.806
G2 X65.704 Y42.009 I0.495 J0.729
G3 X65.102 Y42.714 I-0.617 J0.082
G1 X64.781 Y42.721
X64.383 Y42.654
X64.067 Y42.53
X63.826 Y42.364
X63.657 Y42.172
X63.539 Y41.943
X63.474 Y41.665
X63.472 Y41.325
X63.555 Y40.927
X63.71 Y40.559
X63.732 Y40.506
X64.014 Y40.069
X64.381 Y39.665
X64.828 Y39.307
X65.314 Y39.028
X65.83 Y38.831
X66.325 Y38.731
X66.491 Y38.725
X66.807 Y38.719
X67.195 Y38.785
X67.511 Y38.91
X67.742 Y39.07
X67.918 Y39.268
X68.035 Y39.495
X68.101 Y39.775
X68.102 Y40.115
X68.022 Y40.5
X67.987 Y40.588
X67.843 Y40.93
X67.832 Y40.949
X67.571 Y41.355
X67.193 Y41.774
X66.747 Y42.132
X66.259 Y42.411
X65.734 Y42.61
X65.231 Y42.711
X65.102 Y42.714
G3 X65.032 Y42.707 Z-5.011 I-0.007 J-0.317 F400
X64.968 Y42.687 Z-4.987 I0.063 J-0.311
X64.916 Y42.658 Z-4.949 I0.127 J-0.291
X64.876 Y42.627 Z-4.899 I0.179 J-0.262
X64.851 Y42.599 Z-4.839 I0.218 J-0.23
X64.836 Y42.58 Z-4.772 I0.244 J-0.203
G1 X64.832 Y42.574 Z-4.701
G0 Z5
X59.816 Y45.086
Z1.019
G1 Z-4.701 F333.3
X59.823 Y45.091 Z-4.772
G3 X59.841 Y45.106 Z-4.839 I-0.195 J0.251
X59.867 Y45.133 Z-4.899 I-0.213 J0.236
X59.897 Y45.173 Z-4.949 I-0.239 J0.209
X59.924 Y45.227 Z-4.987 I-0.269 J0.168
X59.941 Y45.291 Z-5.011 I-0.296 J0.115
X59.945 Y45.362 Z-5.019 I-0.314 J0.05
G1 X59.944 Y45.371 F700
X59.917 Y45.787
X59.837 Y46.253
X59.711 Y46.673
X59.564 Y46.997
X59.547 Y47.021
X59.403 Y46.824
X59.214 Y46.48
X59.062 Y46.084
X58.978 Y45.716
X58.952 Y45.328
X58.981 Y44.939
X58.991 Y44.892
X59.067 Y44.565
X59.219 Y44.158
X59.415 Y43.788
X59.611 Y43.513
X59.639 Y43.484
X59.748 Y43.753
X59.857 Y44.173
X59.928 Y44.682
X59.95 Y45.276
X59.945 Y45.362
G3 X59.932 Y45.431 Z-5.011 I-0.317 J-0.02 F400
X59.907 Y45.493 Z-4.987 I-0.305 J-0.09
X59.873 Y45.543 Z-4.949 I-0.279 J-0.152
X59.838 Y45.579 Z-4.899 I-0.245 J-0.201
X59.809 Y45.603 Z-4.839 I-0.211 J-0.238
X59.789 Y45.615 Z-4.772 I-0.181 J-0.261
G1 X59.782 Y45.619 Z-4.701
G0 Z5
X65.836 Y49.32
Z1.019
G1 Z-4.701 F333.3
X65.844 Y49.317 Z-4.772
G3 X65.866 Y49.309 Z-4.839 I0.122 J0.293
X65.902 Y49.299 Z-4.899 I0.1 J0.301
X65.952 Y49.293 Z-4.949 I0.064 J0.311
X66.012 Y49.296 Z-4.987 I0.014 J0.317
X66.077 Y49.313 Z-5.011 I-0.046 J0.314
X66.14 Y49.344 Z-5.019 I-0.111 J0.297
X66.636 Y49.762 I-1.499 J2.287 F700
X66.129 Y50.529 I-0.345 J0.323
X65.069 Y49.826 I0.926 J-2.547
X65.576 Y49.062 I0.345 J-0.321
X66.14 Y49.344 I-0.936 J2.57
G2 X67.066 Y49.368 I0.482 J-0.735
G3 X67.947 Y49.653 I0.314 J0.535
G1 X68.088 Y49.972
X68.177 Y50.369
X68.18 Y50.71
X68.119 Y50.985
X68 Y51.222
X67.835 Y51.414
X67.61 Y51.575
X67.288 Y51.71
X66.894 Y51.783
X66.428 Y51.778
X65.926 Y51.684
X65.411 Y51.497
X64.923 Y51.227
X64.467 Y50.874
X64.08 Y50.458
X63.81 Y50.052
X63.679 Y49.76
X63.62 Y49.624
X63.609 Y49.579
X63.531 Y49.233
X63.526 Y48.892
X63.589 Y48.601
X63.688 Y48.401
X63.702 Y48.374
X63.869 Y48.179
X64.103 Y48.011
X64.417 Y47.882
X64.812 Y47.809
X64.814
X65.281 Y47.814
X65.783 Y47.908
X66.298 Y48.096
X66.786 Y48.366
X67.245 Y48.722
X67.609 Y49.112
X67.717 Y49.269
X67.899 Y49.542
X67.947 Y49.653
G3 X67.968 Y49.72 Z-5.011 I-0.291 J0.128 F400
X67.974 Y49.787 Z-4.987 I-0.312 J0.061
X67.967 Y49.847 Z-4.949 I-0.317 J-0.006
X67.953 Y49.895 Z-4.899 I-0.311 J-0.066
X67.938 Y49.929 Z-4.839 I-0.296 J-0.114
X67.926 Y49.95 Z-4.772 I-0.281 J-0.148
G1 X67.921 Y49.956 Z-4.701
G0 Z5
X73.914 Y52.526
Z1.019
G1 Z-4.701 F333.3
Y52.518 Z-4.772
G3 Y52.494 Z-4.839 I0.317 J-0.008
X73.918 Y52.457 Z-4.899 I0.317 J0.015
X73.93 Y52.408 Z-4.949 I0.313 J0.053
X73.955 Y52.353 Z-4.987 I0.301 J0.102
X73.994 Y52.298 Z-5.011 I0.276 J0.157
X74.046 Y52.251 Z-5.019 I0.237 J0.211
G1 X74.054 Y52.246 F700
X74.366 Y52.023
X74.782 Y51.799
X75.215 Y51.626
X75.637 Y51.51
X76.006 Y51.456
X76.096 Y51.457
X76.09 Y51.58
X76.063 Y51.739
X76.015 Y51.929
X75.843 Y52.341
X75.832 Y52.359
X75.552 Y52.793
X75.162 Y53.22
X74.937 Y53.403
X74.699 Y53.597
X74.311 Y53.785
X73.861 Y53.947
X73.593 Y54.011
X73.39 Y54.056
X73.291 Y54.069
X72.949 Y54.098
X72.813 Y54.097
X72.679 Y54.086
X72.67 Y54.085
X72.77 Y53.815
X72.879 Y53.613
X72.979 Y53.437
X73.26 Y53.048
X73.628 Y52.636
X74.007 Y52.28
X74.046 Y52.251
G3 X74.108 Y52.217 Z-5.011 I0.185 J0.258 F400
X74.172 Y52.198 Z-4.987 I0.123 J0.293
X74.232 Y52.192 Z-4.949 I0.059 J0.312
X74.282 Y52.196 Z-4.899 I-0.001 J0.317
X74.319 Y52.204 Z-4.839 I-0.051 J0.313
X74.341 Y52.212 Z-4.772 I-0.088 J0.305
G1 X74.349 Y52.215 Z-4.701
G0 Z5
X79.154 Y45.344
Z1.019
G1 Z-5.019 F333.3
X79.153 Y45.338 F700
X79.148 Y45.003
X79.149 Y44.722
X79.169 Y44.443
X79.197 Y44.161
X79.238 Y43.911
X79.325 Y44.06
X79.504 Y44.475
X79.617 Y44.906
X79.651 Y45.31
X79.653 Y45.337
X79.633 Y45.707
X79.602 Y45.872
X79.544 Y46.107
X79.513 Y46.212
X79.373 Y46.558
X79.325 Y46.638
X79.208 Y46.107
X79.183 Y45.881
X79.158 Y45.6
X79.154 Y45.344
X79.152 Y45.274 Z-5.011 F400
X79.151 Y45.207 Z-4.987
X79.15 Y45.146 Z-4.949
X79.149 Y45.096 Z-4.899
Y45.058 Z-4.839
X79.148 Y45.035 Z-4.772
Y45.027 Z-4.701
G0 Z5
X54.258 Y51.481
Z1.019
G1 Z-4.701 F333.3
X54.255 Y51.474 Z-4.772
G3 X54.247 Y51.452 Z-4.839 I0.295 J-0.118
X54.238 Y51.415 Z-4.899 I0.303 J-0.096
X54.232 Y51.365 Z-4.949 I0.312 J-0.059
X54.236 Y51.305 Z-4.987 I0.317 J-0.009
X54.254 Y51.241 Z-5.011 I0.313 J0.051
X54.287 Y51.178 Z-5.019 I0.296 J0.115
G1 X54.509 Y50.849 F700
X54.729 Y50.538
X55.179 Y49.944
X55.3 Y49.803
X55.308 Y49.815
X55.449 Y50.142
X55.479 Y50.255
X55.384 Y50.548
G2 X55.361 Y50.631 I0.755 J0.246
G1 X55.328 Y50.79
G2 X55.316 Y50.872 I0.777 J0.162
G1 X55.276 Y51.268
G2 X55.272 Y51.367 I0.79 J0.08
G1 X55.274 Y51.48
X55.223 Y51.687
G2 X55.209 Y51.755 I0.77 J0.191
X55.166 Y51.794 I0.502 J0.615
G1 X55.094 Y51.862
X55.077 Y51.877
G2 X55.011 Y51.947 I0.545 J0.577
G1 X54.967 Y52.001
G2 X54.926 Y52.055 I0.611 J0.507
G1 X54.888 Y52.109
G2 X54.843 Y52.183 I0.652 J0.453
G1 X54.792 Y52.276
G2 X54.745 Y52.379 I0.697 J0.38
G1 X54.701 Y52.497
G2 X54.69 Y52.531 I0.744 J0.277
G1 X54.626 Y52.564
G2 X54.542 Y52.614 I0.361 J0.707
G1 X54.466 Y52.665
G2 X54.386 Y52.728 I0.446 J0.657
G1 X54.302 Y52.802
G2 X54.222 Y52.883 I0.526 J0.594
G1 X54.148 Y52.971
G2 X54.085 Y53.057 I0.605 J0.513
G1 X54.032 Y53.139
G2 X53.997 Y53.2 I0.669 J0.428
G1 X53.94 Y53.309
X53.912 Y53.315
G2 X53.796 Y53.351 I0.177 J0.774
G1 X53.683 Y53.396
G2 X53.599 Y53.435 I0.293 J0.738
G1 X53.543 Y53.466
G2 X53.462 Y53.515 I0.377 J0.699
G1 X53.36 Y53.588
G2 X53.272 Y53.66 I0.457 J0.649
G1 X53.196 Y53.731
G2 X53.122 Y53.812 I0.546 J0.576
G1 X53.07 Y53.877
X53.007 Y53.884
G2 X52.888 Y53.907 I0.09 J0.789
G1 X52.769 Y53.939
G2 X52.649 Y53.982 I0.209 J0.766
G1 X52.631 Y53.991
X53.162 Y53.011
X54.123 Y51.421
X54.287 Y51.178
G3 X54.332 Y51.125 Z-5.011 I0.263 J0.178 F400
X54.386 Y51.084 Z-4.987 I0.217 J0.231
X54.44 Y51.058 Z-4.949 I0.164 J0.272
X54.488 Y51.044 Z-4.899 I0.11 J0.298
X54.526 Y51.039 Z-4.839 I0.061 J0.311
X54.549 Y51.038 Z-4.772 I0.024 J0.317
G1 X54.557 Y51.039 Z-4.701
G0 Z5
X51.299 Y49.042
Z1.019
G1 Z-5.019 F333.3
X51.138 Y49.319 F700
G2 X51.142 Y49.283 I-0.785 J-0.116
G1 X51.154 Y49.17
G2 X51.157 Y49.053 I-0.79 J-0.08
G1 X51.153 Y48.969
X51.179 Y48.946
G2 X51.244 Y48.882 I-0.525 J-0.595
G1 X51.324 Y48.793
G2 X51.392 Y48.706 I-0.59 J-0.531
G1 X51.448 Y48.622
G2 X51.506 Y48.521 I-0.658 J-0.444
G1 X51.563 Y48.402
G2 X51.609 Y48.283 I-0.716 J-0.343
G1 X51.644 Y48.164
G2 X51.669 Y48.045 I-0.762 J-0.224
G1 X51.678 Y47.981
X51.718 Y47.955
X51.908 Y47.852
X52.012 Y47.803
X52.041 Y47.792
X51.852 Y48.097
X51.828 Y48.136
G2 X51.816 Y48.156 I0.674 J0.419
G1 X51.299 Y49.042
X51.264 Y49.103 Z-5.011 F400
X51.23 Y49.161 Z-4.987
X51.2 Y49.213 Z-4.949
X51.174 Y49.256 Z-4.899
X51.155 Y49.289 Z-4.839
X51.144 Y49.309 Z-4.772
X51.14 Y49.316 Z-4.701
G0 Z5
X51.723 Y42.549
Z1.019
G1 Z-5.019 F333.3
X51.72 Y42.547 F700
X51.679 Y42.521
G2 X51.658 Y42.399 I-0.791 J0.071
G1 X51.629 Y42.28
G2 X51.589 Y42.161 I-0.77 J0.192
G1 X51.538 Y42.042
G2 X51.487 Y41.944 I-0.73 J0.312
G1 X51.439 Y41.864
G2 X51.385 Y41.785 I-0.68 J0.41
G1 X51.322 Y41.706
G2 X51.246 Y41.622 I-0.625 J0.49
G1 X51.155 Y41.534
G2 X51.156 Y41.47 I-0.792 J-0.052
G1 X51.155 Y41.352
G2 X51.144 Y41.232 I-0.794 J0.012
G1 X51.134 Y41.174
X51.567 Y41.92
X51.937 Y42.555
G2 X51.969 Y42.605 I0.686 J-0.4
G1 X52.037 Y42.705
X51.972 Y42.68
X51.84 Y42.614
X51.727 Y42.551
X51.724 Y42.55
X51.723 Y42.549
X51.72 Y42.547 F400
X51.679 Y42.521 Z-5.014
G2 X51.674 Y42.479 Z-5.004 I-0.791 J0.071
G1 X51.673 Y42.476 Z-5.003
G2 X51.667 Y42.436 Z-4.987 I-0.785 J0.116
X51.658 Y42.399 Z-4.966 I-0.778 J0.156
G1 X51.646 Y42.349 Z-4.923
X51.636 Y42.309 Z-4.87
X51.629 Y42.28 Z-4.81
G2 X51.625 Y42.266 Z-4.757 I-0.77 J0.192
G1 X51.624 Y42.262 Z-4.701
G0 Z5
X55.051 Y38.687
Z1.019
G1 Z-4.701 F333.3
X55.058 Y38.69 Z-4.772
G3 X55.079 Y38.7 Z-4.839 I-0.133 J0.288
X55.111 Y38.721 Z-4.899 I-0.154 J0.278
X55.149 Y38.753 Z-4.949 I-0.186 J0.257
X55.187 Y38.8 Z-4.987 I-0.224 J0.225
X55.219 Y38.859 Z-5.011 I-0.263 J0.178
X55.238 Y38.926 Z-5.019 I-0.294 J0.119
G1 X55.249 Y38.996 F700
G2 X55.272 Y39.094 I0.783 J-0.129
G1 X55.277 Y39.109
X55.275 Y39.257
G2 X55.281 Y39.354 I0.794 J0.006
G1 X55.331 Y39.79
G2 X55.342 Y39.86 I0.788 J-0.091
G1 X55.359 Y39.939
G2 X55.372 Y39.996 I0.777 J-0.161
G1 X55.459 Y40.301
X55.425 Y40.416
X55.301 Y40.699
X55.033 Y40.368
X54.605 Y39.794
X54.281 Y39.314
X54.279 Y39.311
X54.273 Y39.302
X54.123 Y39.081
X53.187 Y37.532
X53.076 Y37.334
X52.63 Y36.51
X52.671 Y36.527
G2 X52.779 Y36.565 I0.316 J-0.728
G1 X52.881 Y36.593
G2 X52.996 Y36.615 I0.208 J-0.766
G1 X53.068 Y36.624
G2 X53.097 Y36.659 I0.624 J-0.491
G1 X53.177 Y36.749
G2 X53.257 Y36.828 I0.595 J-0.526
G1 X53.336 Y36.895
G2 X53.416 Y36.955 I0.514 J-0.604
G1 X53.495 Y37.007
G2 X53.594 Y37.062 I0.435 J-0.664
G1 X53.713 Y37.118
G2 X53.833 Y37.162 I0.336 J-0.719
G1 X53.942 Y37.193
X54.022 Y37.343
G2 X54.082 Y37.44 I0.702 J-0.37
G1 X54.142 Y37.523
G2 X54.214 Y37.608 I0.642 J-0.467
G1 X54.296 Y37.693
G2 X54.381 Y37.769 I0.571 J-0.552
G1 X54.469 Y37.837
G2 X54.556 Y37.896 I0.485 J-0.628
G1 X54.644 Y37.946
G2 X54.691 Y37.972 I0.398 J-0.687
G1 X54.714 Y38.043
G2 X54.754 Y38.141 I0.755 J-0.246
G1 X54.811 Y38.26
G2 X54.868 Y38.359 I0.715 J-0.344
G1 X54.921 Y38.438
G2 X54.979 Y38.514 I0.659 J-0.443
G1 X55.042 Y38.587
G2 X55.108 Y38.655 I0.601 J-0.519
G1 X55.179 Y38.72
G2 X55.208 Y38.745 I0.534 J-0.588
X55.21 Y38.759 I0.785 J-0.115
G1 X55.238 Y38.926
G3 X55.242 Y38.997 Z-5.011 I-0.313 J0.052 F400
X55.231 Y39.063 Z-4.987 I-0.317 J-0.019
X55.209 Y39.119 Z-4.949 I-0.306 J-0.085
X55.183 Y39.162 Z-4.899 I-0.284 J-0.141
X55.16 Y39.192 Z-4.839 I-0.259 J-0.184
X55.143 Y39.208 Z-4.772 I-0.235 J-0.214
G1 X55.137 Y39.214 Z-4.701
G0 Z5
X91.987 Y9.905
Z4
G1 Z-1.664 F333.3
X91.986 Y9.913 Z-1.735
G3 X91.98 Y9.935 Z-1.802 I-0.311 J-0.063
X91.968 Y9.971 Z-1.862 I-0.306 J-0.086
X91.945 Y10.016 Z-1.912 I-0.293 J-0.121
X91.909 Y10.064 Z-1.95 I-0.271 J-0.166
X91.859 Y10.108 Z-1.973 I-0.234 J-0.214
X91.797 Y10.143 Z-1.981 I-0.184 J-0.259
G1 X91.721 Y10.175 F700
X58.375 Y10.173
X56.41 Y9.35
X93.688 Y9.351
X91.797 Y10.143
G3 X91.73 Y10.162 Z-1.973 I-0.123 J-0.293 F400
X91.663 Y10.167 Z-1.95 I-0.055 J-0.313
X91.603 Y10.159 Z-1.912 I0.012 J-0.317
X91.555 Y10.144 Z-1.862 I0.071 J-0.309
X91.521 Y10.128 Z-1.802 I0.119 J-0.294
X91.501 Y10.116 Z-1.735 I0.153 J-0.278
G1 X91.495 Y10.111 Z-1.664
G0 Z5
X57.42 Y9.35
Z2.019
G1 Z-2.981 F333.3
X93.69 Y9.351 F700
X92.721 Y9.756
X57.379
X56.41 Y9.35
X57.42
G18 G2 X57.737 Z-2.664 K0.317 F400
G0 Z15
G17
M9
G28 G91 Z0
G28 X0 Y0
M30
%
