%
(1965)
(T2  D=2 CR=0 - ZMIN=-5.037 - flat end mill)
G90 G94
G17
G21
G28 G91 Z0
G90

(2D Pocket2)
M9
T2 M6
S7958 M3
G54
M9
G0 X50.218 Y30.44
Z15
Z5
G1 Z2.5 F266.7
Z-4.787
G3 X50.217 Y30.425 Z-4.864 I0.199 J-0.017
X50.221 Y30.382 Z-4.929 I0.2 J-0.002
X50.245 Y30.322 Z-4.972 I0.196 J0.041
X50.295 Y30.265 Z-4.987 I0.172 J0.101
X50.694 Y30.008 I1.7 J2.202 F800
X51.388 Y29.808 I0.826 J1.561
X51.44 Y29.806 I0.064 J0.859
X51.65 Y30.124 I0.003 J0.227
X51.455 Y30.426 I-1.042 J-0.46
X51.201 Y30.683 I-2.961 J-2.668
X50.612 Y31.101 I-1.889 J-2.041
X49.918 Y31.301 I-0.826 J-1.562
X49.866 Y31.303 I-0.064 J-0.852
X49.656 Y30.985 I-0.003 J-0.227
X49.852 Y30.682 I1.041 J0.46
X50.105 Y30.426 I2.967 J2.675
X50.295 Y30.265 I1.89 J2.042
G2 X50.785 Y29.007 I-0.8 J-1.036
G3 X51.714 Y28.029 I0.83 J-0.142
G1 X52.013 Y28.064
X52.343 Y28.151
X52.635 Y28.276
X52.884 Y28.434
X53.092 Y28.62
X53.26 Y28.832
X53.389 Y29.069
X53.478 Y29.333
X53.526 Y29.625
X53.527 Y29.942
X53.477 Y30.28
X53.374 Y30.633
X53.215 Y30.992
X53.003 Y31.347
X52.739 Y31.689
X52.429 Y32.01
X52.08 Y32.299
X51.699 Y32.551
X51.295 Y32.759
X50.879 Y32.918
X50.461 Y33.027
X50.051 Y33.083
X49.659 Y33.088
X49.293 Y33.045
X48.963 Y32.958
X48.672 Y32.832
X48.422 Y32.675
X48.214 Y32.489
X48.046 Y32.277
X47.917 Y32.04
X47.828 Y31.775
X47.78 Y31.484
X47.779 Y31.167
X47.829 Y30.829
X47.932 Y30.476
X48.091 Y30.117
X48.303 Y29.762
X48.567 Y29.419
X48.877 Y29.099
X49.226 Y28.809
X49.607 Y28.558
X50.011 Y28.35
X50.427 Y28.19
X50.845 Y28.082
X51.255 Y28.026
X51.648 Y28.021
X51.714 Y28.029
G3 X51.787 Y28.052 Z-4.972 I-0.024 J0.199 F700
X51.838 Y28.092 Z-4.929 I-0.096 J0.175
X51.863 Y28.126 Z-4.864 I-0.147 J0.136
X51.871 Y28.14 Z-4.787 I-0.173 J0.101
G0 Z5
X52.325 Y24.307
G1 Z2.5 F266.7
Z-4.787
G3 X52.318 Y24.321 Z-4.864 I-0.182 J-0.083
X52.293 Y24.356 Z-4.929 I-0.175 J-0.097
X52.243 Y24.397 Z-4.972 I-0.15 J-0.132
X52.171 Y24.422 Z-4.987 I-0.1 J-0.173
G1 X52.132 Y24.427 F800
X51.993 Y24.445
X51.855 Y24.461
X51.718 Y24.476
X51.581 Y24.488
X51.446 Y24.499
X51.313 Y24.507
X51.182 Y24.514
X51.054 Y24.518
X50.929 Y24.521
X50.806
X50.688 Y24.52
X50.574 Y24.516
X50.464 Y24.511
X50.36 Y24.504
X50.451 Y24.41
X50.574 Y24.302
X50.703 Y24.201
X50.836 Y24.108
X50.975 Y24.023
X51.117 Y23.946
X51.264 Y23.877
X51.416 Y23.815
X51.572 Y23.762
X51.732 Y23.717
X51.895 Y23.68
X52.061 Y23.651
X52.229 Y23.631
X52.399 Y23.62
X52.569 Y23.616
X52.741 Y23.622
X52.912 Y23.635
X53.081 Y23.657
X53.247 Y23.686
X53.41 Y23.722
X53.568 Y23.766
X53.721 Y23.816
X53.867 Y23.872
X54.008 Y23.934
X54.075 Y23.968
X54.028 Y23.986
X53.925 Y24.022
X53.816 Y24.058
X53.703 Y24.094
X53.586 Y24.128
X53.466 Y24.162
X53.341 Y24.195
X53.214 Y24.226
X53.084 Y24.256
X52.952 Y24.285
X52.819 Y24.313
X52.683 Y24.339
X52.546 Y24.363
X52.408 Y24.386
X52.27 Y24.408
X52.171 Y24.422
G3 X52.095 Y24.418 Z-4.972 I-0.028 J-0.198 F700
X52.036 Y24.392 Z-4.929 I0.048 J-0.194
X52.002 Y24.365 Z-4.864 I0.107 J-0.169
X51.992 Y24.354 Z-4.787 I0.141 J-0.142
G0 Z5
X45.065 Y27.464
G1 Z2.5 F266.7
Z-4.787
G3 X45.069 Y27.479 Z-4.864 I-0.192 J0.057
X45.073 Y27.522 Z-4.929 I-0.195 J0.043
X45.063 Y27.586 Z-4.972 I-0.2
X45.025 Y27.652 Z-4.987 I-0.189 J-0.064
G1 X44.95 Y27.74 F800
X44.869 Y27.834
X44.788 Y27.926
X44.707 Y28.018
X44.626 Y28.109
X44.544 Y28.199
X44.462 Y28.289
X44.381 Y28.376
X44.301 Y28.463
X44.22 Y28.548
X44.14 Y28.632
X44.06 Y28.714
X43.983 Y28.793
X43.996 Y28.728
X44.046 Y28.534
X44.106 Y28.345
X44.175 Y28.162
X44.254 Y27.986
X44.343 Y27.816
X44.441 Y27.652
X44.549 Y27.495
X44.666 Y27.347
X44.791 Y27.208
X44.924 Y27.077
X45.066 Y26.955
X45.215 Y26.843
X45.374 Y26.739
X45.54 Y26.644
X45.712 Y26.559
X45.89 Y26.485
X45.974 Y26.455
X45.917 Y26.533
X45.851 Y26.622
X45.783 Y26.712
X45.713 Y26.804
X45.642 Y26.896
X45.569 Y26.989
X45.495 Y27.082
X45.42 Y27.176
X45.344 Y27.27
X45.267 Y27.364
X45.188 Y27.459
X45.109 Y27.553
X45.03 Y27.647
X45.025 Y27.652
G3 X44.966 Y27.699 Z-4.972 I-0.152 J-0.13 F700
X44.904 Y27.719 Z-4.929 I-0.092 J-0.177
X44.861 Y27.721 Z-4.864 I-0.031 J-0.198
X44.846 Y27.72 Z-4.787 I0.012 J-0.2
G0 Z5
X39.741 Y28.649
G1 Z2.5 F266.7
Z-4.787
G3 X39.755 Y28.656 Z-4.864 I-0.079 J0.184
X39.791 Y28.68 Z-4.929 I-0.093 J0.177
X39.833 Y28.729 Z-4.972 I-0.129 J0.153
X39.86 Y28.8 Z-4.987 I-0.171 J0.104
X39.897 Y29.162 I-2.804 J0.469 F800
G2 X39.936 Y29.537 I2.764 J-0.1
X39.964 Y29.663 I1.447 J-0.252
G3 X39.996 Y29.788 I-5.819 J1.552
X39.796 Y29.883 I-0.11 J0.027
X38.997 Y28.715 I12.917 J-9.694
X38.269 Y27.501 I37.539 J-23.335
G2 X38.177 Y27.352 I-2.584 J1.494
G3 X38.086 Y27.202 I2.059 J-1.358
X38.252 Y27.036 I0.106 J-0.06
G2 X38.555 Y27.173 I0.872 J-1.533
G3 X38.652 Y27.254 I-0.057 J0.166
G2 X39.257 Y27.892 I1.542 J-0.856
G3 X39.381 Y28.038 I-0.168 J0.267
G2 X39.769 Y28.616 I1.629 J-0.676
G3 X39.857 Y28.786 I-0.222 J0.224
X39.86 Y28.8 I-2.802 J0.483
G2 X40.278 Y29.281 I0.601 J-0.101
G3 X40.721 Y29.738 I-0.201 J0.639
G1 X40.722 Y29.743
G2 X40.734 Y29.78 I1.011 J-0.285
G1 X40.752 Y29.837
G2 X40.765 Y29.876 I0.999 J-0.322
G1 X40.785 Y29.93
G2 X40.799 Y29.966 I0.986 J-0.362
G1 X40.821 Y30.02
G2 X40.838 Y30.059 I0.972 J-0.397
G1 X40.855 Y30.095
X40.842 Y30.143
X40.814 Y30.242
X40.783 Y30.338
X40.75 Y30.432
X40.715 Y30.524
X40.678 Y30.612
X40.638 Y30.698
X40.597 Y30.78
X40.554 Y30.859
X40.508 Y30.934
X40.462 Y31.004
X40.413 Y31.071
X40.362 Y31.134
X40.311 Y31.192
X40.257 Y31.246
X40.203 Y31.297
X40.146 Y31.343
X40.104 Y31.375
X40.052 Y31.32
X39.877 Y31.125
X39.702 Y30.919
X39.526 Y30.704
X39.351 Y30.479
X39.176 Y30.246
X39.001 Y30.005
X38.827 Y29.757
X38.654 Y29.502
X38.482 Y29.241
X38.311 Y28.974
X38.141 Y28.702
X37.973 Y28.426
X37.806 Y28.146
X37.641 Y27.864
X37.479 Y27.58
X37.318 Y27.294
X37.161 Y27.009
X37.006 Y26.723
X36.854 Y26.439
X36.705 Y26.156
X36.559 Y25.874
G2 X35.838 Y25.329 I-0.932 J0.484
X36.053 Y25.286 I-0.1 J-1.045
G1 X36.064 Y25.295
G2 X36.118 Y25.339 I0.695 J-0.787
G1 X36.151 Y25.365
G2 X36.224 Y25.416 I0.641 J-0.832
G1 X36.258 Y25.438
G2 X36.348 Y25.49 I0.568 J-0.883
G1 X36.383 Y25.508
G2 X37.222 Y25.559 I0.478 J-0.935
G1 X37.248 Y25.585
G2 X37.259 Y25.596 I0.75 J-0.735
G1 X37.306 Y25.643
G2 X38.159 Y25.942 I0.739 J-0.746
G1 X38.17 Y25.959
X38.201 Y26.007
X38.234 Y26.059
G2 X39.092 Y26.553 I0.89 J-0.556
G1 X39.115 Y26.598
X39.151 Y26.668
X39.189 Y26.742
X39.192 Y26.748
X39.228 Y26.816
X39.231 Y26.823
X39.268 Y26.891
G2 X39.926 Y27.413 I0.927 J-0.494
G1 X39.936 Y27.446
X39.96 Y27.522
X39.984 Y27.601
X40.009 Y27.678
G2 X40.518 Y28.29 I1.001 J-0.316
G1 X40.52 Y28.313
X40.521 Y28.321
X40.525 Y28.375
G2 X40.526 Y28.387 I1.046 J-0.087
G1 X40.531 Y28.44
G2 X40.533 Y28.456 I1.045 J-0.099
G1 X40.538 Y28.507
G2 X40.541 Y28.529 I1.044 J-0.115
G1 X40.547 Y28.577
G2 X40.551 Y28.605 I1.041 J-0.137
G1 X40.559 Y28.651
G2 X40.565 Y28.688 I1.037 J-0.165
G1 X40.574 Y28.733
G2 X40.586 Y28.784 I1.03 J-0.202
G1 X40.597 Y28.83
G2 X40.608 Y28.872 I1.019 J-0.253
G1 Y28.908
G2 Y28.931 I1.05 J0.011
G1 Y28.981
G2 X40.609 Y29.003 I1.05 J-0.013
G1 X40.611 Y29.054
G2 X40.612 Y29.081 I1.049 J-0.035
G1 X40.615 Y29.133
G2 X40.617 Y29.162 I1.048 J-0.062
G1 X40.622 Y29.215
G2 X40.624 Y29.242 I1.046 J-0.091
G1 X40.631 Y29.296
G2 X40.635 Y29.328 I1.043 J-0.118
G1 X40.643 Y29.382
G2 X40.647 Y29.413 I1.039 J-0.15
G1 X40.657 Y29.469
G2 X40.664 Y29.503 I1.034 J-0.18
G1 X40.675 Y29.559
G2 X40.683 Y29.593 I1.028 J-0.214
G1 X40.697 Y29.65
G2 X40.706 Y29.686 I1.02 J-0.249
G1 X40.721 Y29.738
G3 X40.727 Y29.814 Z-4.972 I-0.193 J0.054 F700
X40.71 Y29.876 Z-4.929 I-0.199 J-0.022
X40.688 Y29.913 Z-4.864 I-0.182 J-0.084
X40.678 Y29.925 Z-4.787 I-0.159 J-0.121
G0 Z5
X36.06 Y32.571
G1 Z2.5 F266.7
Z-4.787
G3 X36.046 Y32.564 Z-4.864 I0.082 J-0.182
X36.011 Y32.539 Z-4.929 I0.096 J-0.176
X35.97 Y32.489 Z-4.972 I0.131 J-0.151
X35.944 Y32.418 Z-4.987 I0.172 J-0.101
G2 X35.613 Y31.797 I-1.038 J0.155 F800
G1 X35.564 Y31.752
X35.558 Y31.746
X35.508 Y31.702
X35.456 Y31.655
X35.451 Y31.651
X35.402 Y31.608
X35.376 Y31.586
G2 X35.102 Y30.53 I-1.006 J-0.302
X34.908 Y29.48 I-0.986 J-0.361
G1 X34.902 Y29.473
G2 X34.837 Y28.467 I-0.952 J-0.443
G1 X34.828 Y28.453
G2 X35.034 Y27.806 I-0.843 J-0.626
G1 X35.09 Y27.95
G2 X35.094 Y27.962 I0.98 J-0.376
G1 X35.214 Y28.263
G2 X35.219 Y28.275 I0.976 J-0.388
G1 X35.342 Y28.575
G2 X35.348 Y28.587 I0.971 J-0.4
G1 X35.475 Y28.885
G2 X35.48 Y28.898 I0.966 J-0.412
G1 X35.611 Y29.194
G2 X35.617 Y29.207 I0.96 J-0.425
G1 X35.752 Y29.501
G2 X35.758 Y29.515 I0.954 J-0.438
G1 X35.897 Y29.807
G2 X35.904 Y29.82 I0.948 J-0.451
G1 X36.047 Y30.111
G2 X36.054 Y30.125 I0.942 J-0.464
G1 X36.201 Y30.413
G2 X36.209 Y30.427 I0.935 J-0.478
G1 X36.36 Y30.713
G2 X36.368 Y30.727 I0.928 J-0.492
G1 X36.524 Y31.01
G2 X36.532 Y31.025 I0.92 J-0.506
G1 X36.692 Y31.305
G2 X36.701 Y31.32 I0.912 J-0.521
G1 X36.865 Y31.598
G2 X36.874 Y31.612 I0.903 J-0.536
G1 X37.044 Y31.887
G2 X37.053 Y31.902 I0.894 J-0.551
G1 X37.227 Y32.174
G2 X37.237 Y32.19 I0.885 J-0.566
G1 X37.416 Y32.458
G2 X37.426 Y32.473 I0.874 J-0.581
G1 X37.609 Y32.739
G2 X37.621 Y32.755 I0.864 J-0.597
G1 X37.809 Y33.017
G2 X37.82 Y33.032 I0.853 J-0.613
G1 X37.935 Y33.187
X37.909 Y33.202
X37.881 Y33.216
X37.852 Y33.229
X37.821 Y33.241
X37.789 Y33.251
X37.755 Y33.26
X37.72 Y33.268
X37.681 Y33.274
X37.641 Y33.279
X37.607 Y33.282
X37.514 Y33.284
X37.423 Y33.28
X37.326 Y33.27
X37.223 Y33.253
X37.117 Y33.229
X37.008 Y33.2
X36.895 Y33.164
X36.78 Y33.122
X36.663 Y33.075
X36.545 Y33.023
X36.428 Y32.966
X36.31 Y32.904
X36.194 Y32.839
X36.079 Y32.771
X35.967 Y32.701
X35.949 Y32.689
G2 X35.944 Y32.418 I-1.044 J-0.116
G3 X35.947 Y32.342 Z-4.972 I0.198 J-0.03 F700
X35.972 Y32.282 Z-4.929 I0.195 J0.046
X35.999 Y32.248 Z-4.864 I0.17 J0.106
X36.01 Y32.238 Z-4.787 I0.143 J0.14
G0 Z5
X36.162 Y37.481
G1 Z2.5 F266.7
Z-4.787
G3 X36.164 Y37.466 Z-4.864 I0.2 J0.014
X36.175 Y37.424 Z-4.929 I0.198 J0.029
X36.207 Y37.368 Z-4.972 I0.187 J0.071
X36.266 Y37.32 Z-4.987 I0.155 J0.127
G1 X36.342 Y37.278 F800
X36.461 Y37.217
X36.581 Y37.16
X36.702 Y37.108
X36.822 Y37.061
X36.941 Y37.02
X37.057 Y36.986
X37.171 Y36.958
X37.279 Y36.937
X37.381 Y36.923
X37.478 Y36.916
X37.567 Y36.915
X37.649 Y36.921
X37.722 Y36.933
X37.789 Y36.949
X37.848 Y36.97
X37.902 Y36.995
X37.934 Y37.014
X37.82 Y37.167
G2 X37.808 Y37.183 I0.841 J0.628
G1 X37.62 Y37.445
G2 X37.609 Y37.46 I0.853 J0.613
G1 X37.425 Y37.726
G2 X37.415 Y37.742 I0.864 J0.597
G1 X37.236 Y38.01
G2 X37.226 Y38.025 I0.874 J0.581
G1 X37.052 Y38.297
G2 X37.042 Y38.313 I0.884 J0.566
G1 X36.873 Y38.587
G2 X36.864 Y38.602 I0.894 J0.551
G1 X36.699 Y38.88
G2 X36.691 Y38.895 I0.903 J0.536
G1 X36.53 Y39.175
G2 X36.522 Y39.19 I0.912 J0.521
G1 X36.366 Y39.473
G2 X36.359 Y39.488 I0.92 J0.506
G1 X36.207 Y39.773
G2 X36.2 Y39.788 I0.928 J0.492
G1 X36.052 Y40.076
G2 X36.045 Y40.09 I0.935 J0.478
G1 X35.902 Y40.38
G2 X35.895 Y40.394 I0.942 J0.464
G1 X35.756 Y40.687
G2 X35.75 Y40.699 I0.948 J0.45
G1 X35.615 Y40.994
G2 X35.609 Y41.007 I0.954 J0.438
G1 X35.478 Y41.304
G2 X35.473 Y41.316 I0.96 J0.425
G1 X35.346 Y41.614
G2 X35.34 Y41.627 I0.966 J0.412
G1 X35.217 Y41.927
G2 X35.212 Y41.939 I0.971 J0.4
G1 X35.092 Y42.24
G2 X35.088 Y42.251 I0.976 J0.388
G1 X35.034 Y42.391
G2 X34.828 Y41.746 I-1.05 J-0.02
G1 X34.837 Y41.731
G2 X34.901 Y40.727 I-0.888 J-0.561
G1 X34.907 Y40.72
G2 X35.102 Y39.669 I-0.791 J-0.691
X35.376 Y38.613 I-0.732 J-0.753
G1 X35.398 Y38.594
X35.402 Y38.59
X35.452 Y38.547
X35.503 Y38.502
X35.51 Y38.496
X35.559 Y38.451
X35.563 Y38.447
X35.612 Y38.403
G2 X35.949 Y37.511 I-0.707 J-0.776
G1 X35.99 Y37.483
X36.106 Y37.412
X36.223 Y37.343
X36.266 Y37.32
G3 X36.338 Y37.296 Z-4.972 I0.096 J0.175 F700
X36.403 Y37.299 Z-4.929 I0.024 J0.199
X36.444 Y37.312 Z-4.864 I-0.041 J0.196
X36.458 Y37.319 Z-4.787 I-0.082 J0.182
G0 Z5
X39.799 Y41.222
G1 Z2.5 F266.7
Z-4.787
G3 X39.81 Y41.233 Z-4.864 I-0.137 J0.146
X39.835 Y41.268 Z-4.929 I-0.147 J0.135
X39.858 Y41.328 Z-4.972 I-0.173 J0.1
X39.859 Y41.405 Z-4.987 I-0.196 J0.04
G2 X39.857 Y41.415 I2.693 J0.496 F800
G3 X39.769 Y41.583 I-0.31 J-0.056
G2 X39.381 Y42.161 I1.242 J1.253
G3 X39.257 Y42.307 I-0.291 J-0.121
G2 X38.652 Y42.945 I0.938 J1.494
G3 X38.555 Y43.026 I-0.153 J-0.085
G2 X38.174 Y43.21 I0.569 J1.67
G3 X38.038 Y43.081 I-0.052 J-0.081
X38.905 Y41.622 I30.75 J17.271
X39.866 Y40.223 I17.087 J10.71
X40.162 Y40.281 I0.134 J0.101
X40.181 Y40.356 I-2.783 J0.739
X40.198 Y40.431 I-7.223 J1.713
X40.176 Y40.563 I-0.171 J0.039
G2 X39.975 Y40.974 I1.785 J1.125
X39.859 Y41.405 I2.577 J0.927
X39.986 Y41.899 I0.598 J0.11
G3 X40.053 Y42.406 I-0.376 J0.307
G2 X40.009 Y42.521 I0.958 J0.431
G1 X39.985 Y42.596
X39.961 Y42.675
X39.937 Y42.752
X39.926 Y42.786
G2 X39.268 Y43.308 I0.269 J1.015
G1 X39.231 Y43.376
X39.228 Y43.383
X39.192 Y43.451
X39.189 Y43.457
X39.153 Y43.526
X39.116 Y43.599
X39.092 Y43.646
G2 X38.234 Y44.14 I0.032 J1.05
G1 X38.201 Y44.192
X38.17 Y44.24
X38.159 Y44.257
G2 X37.306 Y44.556 I-0.114 J1.044
G1 X37.259 Y44.603
G2 X37.247 Y44.615 I0.739 J0.746
G1 X37.222 Y44.64
G2 X36.392 Y44.687 I-0.361 J0.986
G1 X36.361 Y44.702
G2 X36.28 Y44.747 I0.47 J0.939
G1 X36.25 Y44.765
G2 X36.182 Y44.812 I0.551 J0.894
G1 X36.153 Y44.833
G2 X36.103 Y44.872 I0.62 J0.848
G1 X36.074 Y44.895
G2 X36.053 Y44.913 I0.67 J0.809
X35.848 Y44.871 I-0.314 J1.002
X36.557 Y44.328 I-0.223 J-1.026
G1 X36.703 Y44.046
X36.852 Y43.763
X37.004 Y43.478
X37.159 Y43.193
X37.317 Y42.907
X37.477 Y42.621
X37.64 Y42.337
X37.805 Y42.055
X37.972 Y41.775
X38.141 Y41.498
X38.31 Y41.226
X38.482 Y40.959
X38.654 Y40.697
X38.827 Y40.443
X39.001 Y40.194
X39.175 Y39.953
X39.35 Y39.72
X39.526 Y39.495
X39.702 Y39.28
X39.877 Y39.074
X40.052 Y38.879
X40.103 Y38.825
X40.136 Y38.848
X40.225 Y38.923
X40.309 Y39.006
X40.389 Y39.099
X40.466 Y39.202
X40.539 Y39.316
X40.607 Y39.439
X40.671 Y39.571
X40.729 Y39.711
X40.782 Y39.858
X40.829 Y40.011
X40.871 Y40.168
X40.907 Y40.329
X40.938 Y40.491
X40.964 Y40.653
X40.972 Y40.717
G2 X40.765 Y40.968 I0.696 J0.786
G1 X40.743 Y41.004
G2 X40.681 Y41.128 I0.903 J0.535
G1 X40.663 Y41.169
G2 X40.629 Y41.262 I0.966 J0.411
G1 X40.614 Y41.308
G2 X40.594 Y41.38 I1.001 J0.318
G1 X40.582 Y41.429
G2 X40.571 Y41.483 I1.021 J0.246
G1 X40.561 Y41.536
G2 X40.554 Y41.576 I1.032 J0.192
G1 X40.546 Y41.631
G2 X40.542 Y41.659 I1.039 J0.151
G1 X40.536 Y41.715
G2 X40.534 Y41.735 I1.043 J0.124
G1 X40.528 Y41.794
G2 X40.526 Y41.809 I1.045 J0.104
G1 X40.521 Y41.87
G2 X40.52 Y41.88 I1.046 J0.089
G1 X40.518 Y41.909
G2 X40.053 Y42.406 I0.492 J0.928
G3 X40.009 Y42.468 Z-4.972 I-0.182 J-0.082 F700
X39.956 Y42.505 Z-4.929 I-0.139 J-0.144
X39.915 Y42.519 Z-4.864 I-0.085 J-0.181
X39.9 Y42.522 Z-4.787 I-0.044 J-0.195
G0 Z5
X44.915 Y42.01
G1 Z2.5 F266.7
Z-4.787
G3 X44.93 Y42.008 Z-4.864 I0.027 J0.198
X44.973 Y42.011 Z-4.929 I0.012 J0.2
X45.035 Y42.031 Z-4.972 I-0.031 J0.198
X45.094 Y42.078 Z-4.987 I-0.093 J0.177
G1 X45.145 Y42.138 F800
X45.213 Y42.218
X45.281 Y42.299
X45.348 Y42.38
X45.414 Y42.46
X45.48 Y42.541
X45.545 Y42.621
X45.609 Y42.701
X45.672 Y42.781
X45.734 Y42.861
X45.795 Y42.939
X45.855 Y43.018
X45.915 Y43.096
X45.972 Y43.173
X46.028 Y43.249
X46.071 Y43.307
X45.965 Y43.27
X45.784 Y43.192
X45.611 Y43.105
X45.445 Y43.008
X45.287 Y42.902
X45.136 Y42.786
X44.993 Y42.659
X44.858 Y42.524
X44.733 Y42.38
X44.617 Y42.228
X44.511 Y42.068
X44.413 Y41.899
X44.326 Y41.724
X44.248 Y41.541
X44.181 Y41.353
X44.124 Y41.159
X44.079 Y40.969
X44.111 Y41.002
X44.178 Y41.07
X44.246 Y41.141
X44.315 Y41.213
X44.383 Y41.285
X44.452 Y41.359
X44.522 Y41.434
X44.591 Y41.509
X44.661 Y41.585
X44.73 Y41.663
X44.8 Y41.741
X44.869 Y41.819
X44.939 Y41.898
X45.008 Y41.978
X45.077 Y42.058
X45.094 Y42.078
G3 X45.132 Y42.144 Z-4.972 I-0.152 J0.13 F700
X45.142 Y42.208 Z-4.929 I-0.19 J0.064
X45.138 Y42.251 Z-4.864 I-0.2
X45.134 Y42.266 Z-4.787 I-0.195 J-0.043
G0 Z5
X50.528 Y39.185
G1 Z2.5 F266.7
Z-4.787
G3 X50.541 Y39.178 Z-4.864 I0.091 J0.178
X50.583 Y39.166 Z-4.929 I0.078 J0.184
X50.648 Y39.165 Z-4.972 I0.036 J0.197
X50.719 Y39.189 Z-4.987 I-0.028 J0.198
X51.109 Y39.462 I-1.393 J2.405 F800
X51.556 Y40.029 I-1.133 J1.356
X51.578 Y40.076 I-0.772 J0.385
X51.363 Y40.391 I-0.209 J0.089
X51.009 Y40.324 I0.031 J-1.139
X50.676 Y40.187 I1.353 J-3.761
X50.066 Y39.8 I1.173 J-2.521
X49.618 Y39.233 I1.133 J-1.355
X49.596 Y39.186 I0.769 J-0.384
X49.811 Y38.871 I0.209 J-0.089
X50.165 Y38.937 I-0.031 J1.139
X50.499 Y39.075 I-1.352 J3.76
X50.719 Y39.189 I-1.172 J2.52
G2 X52.069 Y39.167 I0.656 J-1.133
G3 X53.327 Y39.656 I0.446 J0.714
G1 X53.407 Y39.946
X53.452 Y40.285
X53.446 Y40.602
X53.394 Y40.893
X53.301 Y41.155
X53.169 Y41.391
X52.998 Y41.6
X52.787 Y41.783
X52.535 Y41.937
X52.242 Y42.058
X51.91 Y42.14
X51.545 Y42.179
X51.153 Y42.168
X50.743 Y42.106
X50.327 Y41.991
X49.913 Y41.826
X49.513 Y41.612
X49.135 Y41.355
X48.79 Y41.06
X48.485 Y40.735
X48.226 Y40.389
X48.019 Y40.031
X47.866 Y39.67
X47.767 Y39.315
X47.723 Y38.976
X47.728 Y38.659
X47.78 Y38.369
X47.873 Y38.106
X48.006 Y37.87
X48.177 Y37.661
X48.387 Y37.478
X48.639 Y37.324
X48.932 Y37.203
X49.264 Y37.121
X49.629 Y37.083
X50.021 Y37.094
X50.431 Y37.156
X50.848 Y37.27
X51.261 Y37.436
X51.662 Y37.649
X52.039 Y37.907
X52.384 Y38.201
X52.689 Y38.526
X52.948 Y38.872
X53.156 Y39.231
X53.309 Y39.592
X53.327 Y39.656
G3 X53.333 Y39.732 Z-4.972 I-0.193 J0.053 F700
X53.315 Y39.794 Z-4.929 I-0.199 J-0.022
X53.293 Y39.831 Z-4.864 I-0.181 J-0.085
X53.283 Y39.843 Z-4.787 I-0.159 J-0.122
G0 Z5
X56.875 Y35.194
G1 Z2.5 F266.7
Z-4.787
G3 X56.863 Y35.184 Z-4.864 I0.127 J-0.155
X56.835 Y35.151 Z-4.929 I0.138 J-0.145
X56.808 Y35.092 Z-4.972 I0.166 J-0.112
X56.803 Y35.016 Z-4.987 I0.193 J-0.053
X56.929 Y34.581 I1.357 J0.157 F800
X57.32 Y34.173 I0.821 J0.395
X57.886 Y34.197 I0.262 J0.49
X58.35 Y34.963 I-0.565 J0.866
X58.136 Y35.832 I-1.34 J0.131
X57.695 Y36.149 I-0.632 J-0.414
X57.166 Y36.024 I-0.146 J-0.562
X56.804 Y35.343 I0.713 J-0.816
X56.803 Y35.016 I1.355 J-0.169
G2 X56.3 Y33.838 I-1.284 J-0.149
G3 X56.39 Y32.559 I0.462 J-0.61
G1 X56.551 Y32.47
X56.88 Y32.345
X57.219 Y32.271
X57.568 Y32.247
X57.918 Y32.271
X58.257 Y32.345
X58.586 Y32.47
X58.899 Y32.644
X59.191 Y32.865
X59.455 Y33.131
X59.686 Y33.436
X59.878 Y33.777
X60.027 Y34.146
X60.129 Y34.536
X60.18 Y34.939
Y35.347
X60.129 Y35.749
X60.027 Y36.14
X59.878 Y36.509
X59.686 Y36.849
X59.455 Y37.155
X59.191 Y37.421
X58.899 Y37.642
X58.586 Y37.816
X58.257 Y37.941
X57.918 Y38.015
X57.568 Y38.039
X57.219 Y38.015
X56.88 Y37.941
X56.551 Y37.816
X56.238 Y37.642
X55.946 Y37.421
X55.682 Y37.155
X55.451 Y36.849
X55.258 Y36.509
X55.109 Y36.14
X55.008 Y35.75
X54.957 Y35.347
Y34.939
X55.008 Y34.536
X55.109 Y34.146
X55.258 Y33.777
X55.451 Y33.436
X55.682 Y33.131
X55.946 Y32.865
X56.238 Y32.644
X56.39 Y32.559
G3 X56.463 Y32.535 Z-4.972 I0.097 J0.175 F700
X56.527 Y32.538 Z-4.929 I0.025 J0.198
X56.568 Y32.551 Z-4.864 I-0.04 J0.196
X56.582 Y32.558 Z-4.787 I-0.081 J0.183
G0 Z5
X59.403 Y27.653
G1 Z2.5 F266.7
Z-4.787
G3 X59.389 Y27.657 Z-4.864 I-0.061 J-0.191
X59.346 Y27.662 Z-4.929 I-0.046 J-0.195
X59.282 Y27.653 Z-4.972 I-0.003 J-0.2
X59.215 Y27.616 Z-4.987 I0.061 J-0.19
X58.978 Y27.403 I2.5 J-3.015 F800
X59.101 Y27.227 I0.076 J-0.078
X59.343 Y27.388 I-0.468 J0.971
X59.558 Y27.583 I-4.737 J5.405
G2 X59.599 Y27.621 I1.154 J-1.214
G3 X59.64 Y27.66 I-0.705 J0.793
X59.511 Y27.826 I-0.074 J0.075
X59.232 Y27.63 I1.173 J-1.968
X59.215 Y27.616 I2.483 J-3.029
G2 X58.258 Y27.491 I-0.577 J0.696
G3 X57.333 Y27.22 I-0.307 J-0.665
G1 X57.272 Y27.124
X57.201 Y27.003
X57.137 Y26.885
X57.081 Y26.771
X57.032 Y26.66
X56.991 Y26.554
X56.957 Y26.453
X56.931 Y26.359
X56.911 Y26.271
X56.899 Y26.191
X56.892 Y26.118
X56.89 Y26.051
X56.893 Y25.992
X56.9 Y25.939
X56.911 Y25.892
X56.922 Y25.856
X56.938 Y25.846
X56.977 Y25.827
X57.028 Y25.806
X57.087 Y25.786
X57.152 Y25.767
X57.225 Y25.75
X57.305 Y25.735
X57.393 Y25.723
X57.488 Y25.714
X57.589 Y25.708
X57.695 Y25.706
X57.808 Y25.708
X57.925 Y25.715
X58.044 Y25.725
X58.165 Y25.74
X58.287 Y25.759
X58.41 Y25.781
X58.532 Y25.808
X58.655 Y25.838
X58.777 Y25.872
X58.899 Y25.909
X59.021 Y25.95
X59.141 Y25.993
X59.261 Y26.04
X59.38 Y26.091
X59.499 Y26.145
X59.616 Y26.201
X59.732 Y26.261
X59.798 Y26.297
X59.922 Y26.386
X60.075 Y26.506
X60.218 Y26.627
X60.351 Y26.749
X60.476 Y26.872
X60.591 Y26.995
X60.698 Y27.119
X60.797 Y27.244
X60.888 Y27.368
X60.971 Y27.492
X61.047 Y27.616
X61.115 Y27.738
X61.176 Y27.859
X61.231 Y27.979
X61.278 Y28.096
X61.319 Y28.212
X61.354 Y28.325
X61.383 Y28.435
X61.407 Y28.542
X61.425 Y28.645
X61.438 Y28.745
X61.446 Y28.841
X61.45 Y28.931
X61.449 Y29.016
X61.445 Y29.096
X61.438 Y29.169
X61.427 Y29.236
X61.414 Y29.298
X61.399 Y29.353
X61.391 Y29.377
X61.35 Y29.393
X61.296 Y29.408
X61.23 Y29.422
X61.153 Y29.433
X61.067 Y29.44
X60.974 Y29.443
X60.876 Y29.442
X60.776 Y29.436
X60.671 Y29.426
X60.562 Y29.412
X60.448 Y29.394
X60.331 Y29.371
X60.212 Y29.343
X60.091 Y29.312
X59.968 Y29.276
X59.845 Y29.237
X59.721 Y29.193
X59.597 Y29.146
X59.474 Y29.095
X59.352 Y29.04
X59.23 Y28.981
X59.111 Y28.919
X58.994 Y28.855
X58.881 Y28.787
X58.771 Y28.717
X58.665 Y28.644
X58.565 Y28.569
X58.474 Y28.497
X58.346 Y28.384
X58.213 Y28.261
X58.085 Y28.136
X57.963 Y28.009
X57.845 Y27.882
X57.734 Y27.755
X57.628 Y27.627
X57.529 Y27.499
X57.436 Y27.373
X57.351 Y27.248
X57.333 Y27.22
G3 X57.305 Y27.149 Z-4.972 I0.169 J-0.107 F700
X57.304 Y27.084 Z-4.929 I0.197 J-0.037
X57.314 Y27.043 Z-4.864 I0.198 J0.028
X57.32 Y27.029 Z-4.787 I0.187 J0.07
G0 Z5
X64.906 Y34.766
G1 Z2.5 F266.7
Z-4.787
G3 X64.919 Y34.775 Z-4.864 I-0.111 J0.166
X64.95 Y34.805 Z-4.929 I-0.123 J0.157
X64.982 Y34.861 Z-4.972 I-0.154 J0.127
X64.995 Y34.936 Z-4.987 I-0.187 J0.071
G1 X64.994 Y35.036 F800
G2 Y35.048 I1.05 J0.018
G1 X64.993 Y35.175
X64.987 Y35.278
X64.977 Y35.383
X64.962 Y35.49
X64.943 Y35.598
X64.918 Y35.708
X64.89 Y35.818
X64.857 Y35.928
X64.82 Y36.039
X64.78 Y36.15
X64.735 Y36.26
X64.688 Y36.368
X64.637 Y36.476
X64.583 Y36.582
X64.526 Y36.687
X64.467 Y36.789
X64.406 Y36.888
X64.343 Y36.985
X64.279 Y37.078
X64.214 Y37.168
X64.148 Y37.254
X64.082 Y37.335
X64.017 Y37.412
X63.952 Y37.483
X63.888 Y37.55
X63.826 Y37.61
X63.809 Y37.626
X63.791 Y37.584
X63.756 Y37.496
X63.721 Y37.401
X63.688 Y37.3
X63.655 Y37.193
X63.623 Y37.08
X63.593 Y36.964
X63.565 Y36.844
X63.539 Y36.721
X63.514 Y36.595
X63.492 Y36.467
X63.472 Y36.338
X63.455 Y36.209
X63.44 Y36.078
X63.427 Y35.948
X63.418 Y35.819
X63.41 Y35.692
X63.406 Y35.566
X63.404 Y35.442
X63.405 Y35.323
X63.409 Y35.193
G2 X63.41 Y35.147 I-1.049 J-0.033
G1 X63.408 Y35.02
X63.41 Y34.902
X63.414 Y34.779
X63.422 Y34.651
X63.432 Y34.52
X63.445 Y34.386
X63.461 Y34.25
X63.48 Y34.113
X63.502 Y33.976
X63.526 Y33.838
X63.553 Y33.701
X63.582 Y33.565
X63.613 Y33.432
X63.646 Y33.3
X63.682 Y33.172
X63.719 Y33.048
X63.757 Y32.929
X63.797 Y32.815
X63.837 Y32.707
X63.879 Y32.606
X63.92 Y32.513
X63.939 Y32.474
X64.01 Y32.552
X64.083 Y32.638
X64.157 Y32.73
X64.231 Y32.829
X64.305 Y32.934
X64.378 Y33.044
X64.449 Y33.158
X64.518 Y33.277
X64.584 Y33.399
X64.646 Y33.523
X64.703 Y33.648
X64.756 Y33.775
X64.805 Y33.901
X64.848 Y34.028
X64.886 Y34.154
X64.918 Y34.28
X64.945 Y34.406
X64.967 Y34.53
X64.982 Y34.652
X64.992 Y34.773
X64.996 Y34.892
X64.995 Y34.936
G3 X64.98 Y35.01 Z-4.972 I-0.2 J-0.004 F700
X64.945 Y35.065 Z-4.929 I-0.184 J-0.078
X64.913 Y35.094 Z-4.864 I-0.15 J-0.133
X64.901 Y35.103 Z-4.787 I-0.118 J-0.162
G0 Z5
X58.925 Y42.591
G1 Z2.5 F266.7
Z-4.787
G3 X58.924 Y42.575 Z-4.864 I0.199 J-0.016
X58.929 Y42.532 Z-4.929 I0.2 J-0.001
X58.953 Y42.472 Z-4.972 I0.195 J0.042
X59.003 Y42.415 Z-4.987 I0.172 J0.102
X59.613 Y42.041 I2.161 J2.838 F800
X59.749 Y42.222 I0.05 J0.104
X59.385 Y42.572 I-2.4 J-2.136
X58.972 Y42.864 I-2.314 J-2.827
X58.769 Y42.971 I-0.944 J-1.549
X58.552 Y43.045 I-0.526 J-1.176
X58.462 Y42.883 I-0.023 J-0.094
X59.003 Y42.415 I4.068 J4.165
G2 X59.376 Y41.473 I-0.594 J-0.78
G3 X59.912 Y40.612 I0.756 J-0.127
G1 X59.988 Y40.59
X60.126 Y40.552
X60.263 Y40.519
X60.396 Y40.491
X60.526 Y40.468
X60.651 Y40.45
X60.771 Y40.437
X60.884 Y40.429
X60.991 Y40.426
X61.095 Y40.427
X61.191 Y40.434
X61.279 Y40.445
X61.353 Y40.459
X61.413 Y40.476
X61.456 Y40.492
X61.462 Y40.505
X61.469 Y40.523
X61.477 Y40.543
X61.484 Y40.565
X61.492 Y40.587
X61.499 Y40.612
X61.505 Y40.637
X61.512 Y40.665
X61.518 Y40.694
X61.524 Y40.724
X61.529 Y40.755
X61.534 Y40.788
X61.538 Y40.822
X61.542 Y40.857
X61.544 Y40.892
X61.547 Y40.93
Y40.94
X61.546 Y40.961
Y40.97
X61.545 Y40.982
Y40.995
Y41.007
X61.544 Y41.015
Y41.023
Y41.032
Y41.04
X61.543 Y41.053
Y41.065
Y41.077
Y41.086
X61.542 Y41.094
Y41.102
Y41.11
Y41.135
X61.541 Y41.148
Y41.156
Y41.164
Y41.172
Y41.181
Y41.187
X61.534 Y41.262
X61.52 Y41.364
X61.501 Y41.47
X61.476 Y41.579
X61.446 Y41.691
X61.409 Y41.805
X61.367 Y41.923
X61.318 Y42.042
X61.262 Y42.163
X61.201 Y42.283
X61.134 Y42.403
X61.062 Y42.52
X60.985 Y42.635
X60.903 Y42.749
X60.816 Y42.861
X60.725 Y42.971
X60.629 Y43.078
X60.529 Y43.183
X60.426 Y43.286
X60.318 Y43.386
X60.207 Y43.483
X60.092 Y43.578
X59.974 Y43.671
X59.841 Y43.769
X59.837 Y43.772
X59.756 Y43.833
X59.689 Y43.879
X59.618 Y43.924
X59.546 Y43.966
X59.472 Y44.006
X59.395 Y44.044
X59.316 Y44.08
X59.234 Y44.113
X59.15 Y44.145
X59.065 Y44.174
X58.977 Y44.201
X58.888 Y44.226
X58.796 Y44.249
X58.703 Y44.269
X58.609 Y44.287
X58.513 Y44.302
X58.417 Y44.316
X58.319 Y44.327
X58.221 Y44.335
X58.122 Y44.342
X58.023 Y44.346
X57.925 Y44.347
X57.825
X57.726 Y44.344
X57.639 Y44.34
X57.552 Y44.334
X57.467 Y44.326
X57.383 Y44.317
X57.301 Y44.306
X57.22 Y44.294
X57.14 Y44.281
X57.064 Y44.266
X56.989 Y44.25
X56.917 Y44.233
X56.847 Y44.215
X56.78 Y44.196
X56.716 Y44.176
X56.653 Y44.155
X56.593 Y44.133
X56.536 Y44.11
X56.482 Y44.087
X56.434 Y44.064
X56.391 Y44.041
X56.356 Y44.021
X56.348 Y44.003
X56.34 Y43.978
X56.335 Y43.948
X56.333 Y43.912
X56.335 Y43.866
X56.342 Y43.809
X56.356 Y43.744
X56.377 Y43.67
X56.406 Y43.589
X56.441 Y43.504
X56.484 Y43.414
X56.534 Y43.32
X56.59 Y43.223
X56.652 Y43.124
X56.719 Y43.024
X56.79 Y42.924
X56.865 Y42.824
X56.943 Y42.726
X57.023 Y42.629
X57.106 Y42.531
X57.192 Y42.434
X57.281 Y42.336
X57.373 Y42.239
X57.467 Y42.142
X57.563 Y42.046
X57.661 Y41.951
X57.76 Y41.856
X57.86 Y41.762
X57.961 Y41.67
X58.051 Y41.59
X58.149 Y41.509
X58.256 Y41.427
X58.369 Y41.346
X58.488 Y41.267
X58.611 Y41.19
X58.738 Y41.115
X58.87 Y41.043
X59.005 Y40.973
X59.142 Y40.907
X59.281 Y40.844
X59.422 Y40.785
X59.563 Y40.73
X59.706 Y40.679
X59.847 Y40.632
X59.912 Y40.612
G3 X59.987 Y40.605 Z-4.972 I0.058 J0.192 F700
X60.05 Y40.621 Z-4.929 I-0.018 J0.199
X60.087 Y40.643 Z-4.864 I-0.081 J0.183
X60.099 Y40.652 Z-4.787 I-0.118 J0.161
G0 Z5
X52.15 Y46.054
G1 Z2.5 F266.7
Z-4.787
G3 X52.14 Y46.065 Z-4.864 I-0.154 J-0.127
X52.107 Y46.093 Z-4.929 I-0.144 J-0.139
X52.048 Y46.119 Z-4.972 I-0.111 J-0.166
X51.972 Y46.125 Z-4.987 I-0.052 J-0.193
G1 X51.962 Y46.124 F800
X51.797 Y46.095
X51.635 Y46.059
X51.476 Y46.014
X51.321 Y45.961
X51.17 Y45.9
X51.023 Y45.831
X50.88 Y45.754
X50.742 Y45.669
X50.608 Y45.576
X50.48 Y45.476
X50.357 Y45.368
X50.259 Y45.272
X50.348 Y45.266
X50.452 Y45.26
X50.561 Y45.256
X50.674 Y45.254
X50.79
X50.91 Y45.256
X51.032 Y45.26
X51.157 Y45.265
X51.285 Y45.272
X51.414 Y45.282
X51.545 Y45.293
X51.676 Y45.305
X51.809 Y45.32
X51.943 Y45.336
X52.077 Y45.354
X52.211 Y45.373
X52.344 Y45.394
X52.476 Y45.417
X52.608 Y45.441
X52.739 Y45.466
X52.869 Y45.493
X52.995 Y45.521
X53.121 Y45.55
X53.244 Y45.581
X53.363 Y45.612
X53.48 Y45.644
X53.594 Y45.678
X53.703 Y45.712
X53.808 Y45.746
X53.909 Y45.782
X53.979 Y45.807
X53.926 Y45.835
X53.784 Y45.898
X53.635 Y45.956
X53.48 Y46.007
X53.319 Y46.052
X53.153 Y46.089
X52.984 Y46.119
X52.814 Y46.14
X52.643 Y46.154
X52.471 Y46.159
X52.3 Y46.156
X52.131 Y46.144
X51.972 Y46.125
G3 X51.9 Y46.102 Z-4.972 I0.024 J-0.199 F700
X51.849 Y46.062 Z-4.929 I0.096 J-0.175
X51.823 Y46.027 Z-4.864 I0.147 J-0.136
X51.816 Y46.014 Z-4.787 I0.173 J-0.101
G0 Z5
X44.021 Y35.26
G1 Z2.5 F266.7
Z-4.787
G3 X44.008 Y35.251 Z-4.864 I0.1 J-0.173
X43.975 Y35.223 Z-4.929 I0.113 J-0.165
X43.939 Y35.17 Z-4.972 I0.146 J-0.137
X43.921 Y35.096 Z-4.987 I0.182 J-0.083
X44.162 Y33.934 I2.398 J-0.109 F800
X44.435 Y33.958 I0.132 J0.064
X44.583 Y34.932 I-3.775 J1.074
X44.527 Y35.916 I-5.962 J0.152
G2 X44.509 Y36.063 I5.319 J0.749
G3 X44.485 Y36.209 I-1.527 J-0.172
X44.221 Y36.243 I-0.138 J-0.029
X43.921 Y35.096 I2.533 J-1.276
G2 X43.591 Y34.612 I-0.556 J0.025
G3 X43.354 Y34.077 I0.177 J-0.399
G1 X43.385 Y33.982
X43.427 Y33.867
X43.473 Y33.755
X43.523 Y33.644
X43.576 Y33.536
X43.631 Y33.431
X43.689 Y33.33
X43.748 Y33.233
X43.81 Y33.14
X43.873 Y33.052
X43.936 Y32.969
X43.999 Y32.891
X44.061 Y32.82
X44.122 Y32.755
X44.181 Y32.698
X44.236 Y32.648
X44.288 Y32.606
X44.333 Y32.572
X44.369 Y32.548
X44.399 Y32.564
X44.432 Y32.586
X44.468 Y32.613
X44.506 Y32.646
X44.549 Y32.687
X44.593 Y32.734
X44.639 Y32.788
X44.686 Y32.85
X44.735 Y32.919
X44.783 Y32.995
X44.832 Y33.077
X44.879 Y33.167
X44.926 Y33.262
X44.97 Y33.365
X45.014 Y33.473
X45.054 Y33.587
X45.093 Y33.707
X45.129 Y33.834
X45.162 Y33.964
X45.19 Y34.097
X45.216 Y34.232
X45.237 Y34.37
X45.255 Y34.508
X45.269 Y34.648
X45.28 Y34.789
X45.287 Y34.931
X45.29 Y35.072
X45.289 Y35.239
X45.285 Y35.405
X45.277 Y35.565
X45.265 Y35.721
X45.25 Y35.871
X45.231 Y36.015
X45.21 Y36.155
X45.185 Y36.288
X45.158 Y36.416
X45.129 Y36.538
X45.097 Y36.653
X45.063 Y36.763
X45.028 Y36.866
X44.991 Y36.962
X44.952 Y37.051
X44.913 Y37.134
X44.874 Y37.209
X44.834 Y37.278
X44.796 Y37.339
X44.758 Y37.392
X44.721 Y37.44
X44.686 Y37.479
X44.653 Y37.513
X44.623 Y37.541
X44.595 Y37.562
X44.572 Y37.578
X44.552 Y37.59
X44.537 Y37.597
X44.527 Y37.6
X44.52 Y37.602
X44.51 Y37.603
X44.503 Y37.601
X44.483 Y37.595
X44.452 Y37.583
X44.411 Y37.563
X44.364 Y37.534
X44.311 Y37.497
X44.255 Y37.453
X44.196 Y37.401
X44.133 Y37.341
X44.069 Y37.272
X44.004 Y37.197
X43.938 Y37.115
X43.873 Y37.026
X43.808 Y36.931
X43.746 Y36.833
X43.686 Y36.73
X43.628 Y36.624
X43.573 Y36.516
X43.522 Y36.405
X43.474 Y36.293
X43.429 Y36.18
X43.389 Y36.066
X43.352 Y35.952
X43.319 Y35.837
X43.29 Y35.722
X43.265 Y35.607
X43.244 Y35.494
X43.229 Y35.381
X43.218 Y35.271
X43.211 Y35.165
X43.21 Y35.041
X43.209 Y34.909
X43.214 Y34.796
X43.224 Y34.681
X43.239 Y34.565
X43.259 Y34.449
X43.283 Y34.332
X43.313 Y34.215
X43.347 Y34.099
X43.354 Y34.077
G3 X43.391 Y34.01 Z-4.972 I0.19 J0.063 F700
X43.44 Y33.968 Z-4.929 I0.153 J0.129
X43.479 Y33.95 Z-4.864 I0.104 J0.171
X43.494 Y33.945 Z-4.787 I0.064 J0.189
G0 Z5
X35.516 Y25.313
G1 Z2.5 F266.7
Z-4.987
G2 X35.527 Y25.312 I-0.1 J-1.047 F800
X35.516 Y25.313 I0.1 J1.045
G0 Z15

(Drill1)
M9
X89.375 Y60.375
Z15
Z5
Z4.963
Z1.963
G1 Z-0.537 F266.7
G0 Z-0.437
G1 Z-1.037 F266.7
G0 Z-0.937
G1 Z-1.537 F266.7
G0 Z-1.437
G1 Z-2.037 F266.7
G0 Z-1.937
G1 Z-2.537 F266.7
G0 Z-2.437
G1 Z-3.037 F266.7
G0 Z-2.937
G1 Z-3.537 F266.7
G0 Z-3.437
G1 Z-4.037 F266.7
G0 Z-3.937
G1 Z-4.537 F266.7
G0 Z-4.437
G1 Z-5.037 F266.7
G0 Z5
Y10.625
Z4.963
Z1.963
G1 Z-0.537 F266.7
G0 Z-0.437
G1 Z-1.037 F266.7
G0 Z-0.937
G1 Z-1.537 F266.7
G0 Z-1.437
G1 Z-2.037 F266.7
G0 Z-1.937
G1 Z-2.537 F266.7
G0 Z-2.437
G1 Z-3.037 F266.7
G0 Z-2.937
G1 Z-3.537 F266.7
G0 Z-3.437
G1 Z-4.037 F266.7
G0 Z-3.937
G1 Z-4.537 F266.7
G0 Z-4.437
G1 Z-5.037 F266.7
G0 Z5
X30.625
Z4.963
Z1.963
G1 Z-0.537 F266.7
G0 Z-0.437
G1 Z-1.037 F266.7
G0 Z-0.937
G1 Z-1.537 F266.7
G0 Z-1.437
G1 Z-2.037 F266.7
G0 Z-1.937
G1 Z-2.537 F266.7
G0 Z-2.437
G1 Z-3.037 F266.7
G0 Z-2.937
G1 Z-3.537 F266.7
G0 Z-3.437
G1 Z-4.037 F266.7
G0 Z-3.937
G1 Z-4.537 F266.7
G0 Z-4.437
G1 Z-5.037 F266.7
G0 Z5
Y60.5
Z4.963
Z1.963
G1 Z-0.537 F266.7
G0 Z-0.437
G1 Z-1.037 F266.7
G0 Z-0.937
G1 Z-1.537 F266.7
G0 Z-1.437
G1 Z-2.037 F266.7
G0 Z-1.937
G1 Z-2.537 F266.7
G0 Z-2.437
G1 Z-3.037 F266.7
G0 Z-2.937
G1 Z-3.537 F266.7
G0 Z-3.437
G1 Z-4.037 F266.7
G0 Z-3.937
G1 Z-4.537 F266.7
G0 Z-4.437
G1 Z-5.037 F266.7
G0 Z5
Z15

(2D Contour2)
M9
X89.275 Y60.175
Z15
Z5
G1 Z1 F700
Z-4.837 F266.7
G18 G2 X89.475 Z-5.037 I0.2
G1 X89.675 F700
G17 G3 X89.875 Y60.375 J0.2
X88.875 I-0.5 F800
X89.875 I0.5
X89.675 Y60.575 I-0.2 F700
G1 X89.475
G18 G3 X89.275 Z-4.837 K0.2
G0 Z5
Y10.425
G1 Z1 F700
Z-4.837 F266.7
G2 X89.475 Z-5.037 I0.2
G1 X89.675 F700
G17 G3 X89.875 Y10.625 J0.2
X88.875 I-0.5 F800
X89.875 I0.5
X89.675 Y10.825 I-0.2 F700
G1 X89.475
G18 G3 X89.275 Z-4.837 K0.2
G0 Z5
X30.525 Y10.425
G1 Z1 F700
Z-4.837 F266.7
G2 X30.725 Z-5.037 I0.2
G1 X30.925 F700
G17 G3 X31.125 Y10.625 J0.2
X30.125 I-0.5 F800
X31.125 I0.5
X30.925 Y10.825 I-0.2 F700
G1 X30.725
G18 G3 X30.525 Z-4.837 K0.2
G0 Z5
X30.53 Y60.298
G1 Z1 F700
Z-4.837 F266.7
X30.537 Z-4.889
X30.557 Z-4.937
X30.588 Y60.299 Z-4.979
X30.63 Y60.3 Z-5.011
X30.678 Y60.301 Z-5.03
X30.73 Y60.303 Z-5.037
X30.93 Y60.307 F700
G17 G3 X31.125 Y60.512 I-0.005 J0.2
X30.125 Y60.488 I-0.5 J-0.012 F800
X31.125 Y60.512 I0.5 J0.012
X30.92 Y60.707 I-0.2 J-0.005 F700
G1 X30.72 Y60.702
X30.668 Y60.701 Z-5.03
X30.62 Y60.7 Z-5.011
X30.579 Y60.699 Z-4.979
X30.547 Y60.698 Z-4.937
X30.527 Z-4.889
X30.52 Y60.697 Z-4.837
G0 Z15
M9
G28 G91 Z0
G28 X0 Y0
M30
%
